!!!!SEGMENT: pl-cz--ii-90_goetz-gieczynski-cyryl--veni-creator-in-c-a.krn
!!!cenid: 18xx:63
!!!COM: Goetz-Gieczyński, Cyryl
!!!COM-rismid: pe30020327
!!!CDT: 1793-1866
!!!CNT:
!!!OTL: Veni Creator in C - a
!!!PDT:
!!!AGN: Sacred
!!!SMS-siglum: PL-CZ
!!!SMS-shelfmark: II-90
!!!SMS-shelfwork: W
!!!NIFC-rismid:
!!!URL-scan: http://repozytorium.nifc.pl/skany/pl-cz-nut--ii-90
!!!ONB-nifc:
!!!key:
**kern	**fba	**dynam	**kern	**text	**dynam	**kern	**text	**dynam	**kern	**text	**dynam	**kern	**dynam	**kern	**dynam	**kern	**dynam	**kern	**dynam	**kern	**dynam	**kern	**dynam	**kern	**dynam
*part11	*	*part11	*part10	*part10	*part10	*part9	*part9	*part9	*part8	*part8	*part8	*part7	*part7	*part6	*part6	*part5	*part5	*part4	*part4	*part3	*part3	*part2	*part2	*part1	*part1
*staff11	*	*	*staff10	*staff10	*	*staff9	*staff9	*	*staff8	*staff8	*	*staff7	*	*staff6	*	*staff5	*	*staff4	*	*staff3	*	*staff2	*	*staff1	*
*Iorgan	*	*	*Ibass	*	*	*Ivox	*	*	*Ivox	*	*	*Itimpa	*	*Ivioln	*	*Ivioln	*	*Iempty	*	*Iempty	*	*Ioboe	*	*Ioboe	*
*I"Organo.	*	*	*I"Basso.	*	*	*I"Canto 2do	*	*	*I"Canto 1mo	*	*	*I"Timpani	*	*I"Violino IIdo.	*	*I"Violino Imo.	*	*I"Cornu 2do in C.	*	*I"Cornu 1o in C.	*	*I"Oboje 2do	*	*I"Oboje 1mo	*
*I'Org	*	*	*I'B	*	*	*I'C 2	*	*	*I'C I	*	*	*I'Timp	*	*I'Vn II	*	*I'Vn I	*	*I'Cor II	*	*I'Cor I	*	*I'Ob II	*	*I'Ob I	*
*clefF4	*	*	*clefF4	*	*	*clefG2	*	*	*clefG2	*	*	*clefF4	*	*clefG2	*	*clefG2	*	*clefG2	*	*clefG2	*	*clefG2	*	*clefG2	*
*k[]	*	*	*k[]	*	*	*k[]	*	*	*k[]	*	*	*k[]	*	*k[]	*	*k[]	*	*k[]	*	*k[]	*	*k[]	*	*k[]	*
*C:	*	*	*C:	*	*	*C:	*	*	*C:	*	*	*C:	*	*C:	*	*C:	*	*C:	*	*C:	*	*C:	*	*C:	*
*M4/4	*	*	*M4/4	*	*	*M4/4	*	*	*M4/4	*	*	*M4/4	*	*M4/4	*	*M4/4	*	*M4/4	*	*M4/4	*	*M4/4	*	*M4/4	*
*met(c)	*	*	*met(c)	*	*	*met(c)	*	*	*met(c)	*	*	*met(c)	*	*met(c)	*	*met(c)	*	*met(c)	*	*met(c)	*	*met(c)	*	*met(c)	*
*	*	*below	*	*	*	*	*	*	*	*	*below	*	*	*	*	*	*	*	*	*	*	*	*	*	*
=1	=1	=1	=1	=1	=1	=1	=1	=1	=1	=1	=1	=1	=1	=1	=1	=1	=1	=1	=1	=1	=1	=1	=1	=1	=1
!LO:TX:a:i:t=pleno	!	!	!	!	!	!	!	!	!	!	!	!	!	!	!	!	!	!LO:TX:a:t=Clarini	!	!LO:TX:a:t=Clarini	!	!	!	!	!
*tremolo	*	*	*	*	*	*	*	*	*	*	*	*	*	*	*	*	*	*	*	*	*	*	*	*	*
8C/'L	.	f	1r	.	.	1r	.	.	1r	.	.	4C/	.	16c/LL	f	(>16ccLL\	f	4c/	.	4cc\	.	8cc\L	.	8ee\L	.
.	.	.	.	.	.	.	.	.	.	.	.	.	.	16e/	.	16g/	.	.	.	.	.	.	.	.	.
8C/'	.	.	.	.	.	.	.	.	.	.	.	.	.	16f/	.	16a/	.	.	.	.	.	8ee\	.	8gg\	.
.	.	.	.	.	.	.	.	.	.	.	.	.	.	16g/JJ	.	16b\JJ	.	.	.	.	.	.	.	.	.
8C/'	.	.	.	.	.	.	.	.	.	.	.	4r	.	16a/LL	.	16cc\LL	.	4c/	.	4cc\	.	8ff\	.	8aa\	.
.	.	.	.	.	.	.	.	.	.	.	.	.	.	16b\	.	16dd\	.	.	.	.	.	.	.	.	.
8C/'J	.	.	.	.	.	.	.	.	.	.	.	.	.	16cc\	.	16ee\	.	.	.	.	.	8ee\J	.	8gg\J	.
.	.	.	.	.	.	.	.	.	.	.	.	.	.	16dd\JJ	.	16ff\JJ	.	.	.	.	.	.	.	.	.
*	*	*	*	*	*	*	*	*	*	*	*	*tremolo	*	*	*	*	*	*	*	*	*	*	*	*	*
8C/L	.	.	.	.	.	.	.	.	.	.	.	32C/LLL	.	16ee\LL	.	16gg\LL)	.	8c/L	.	8cc\L	.	4ee\	.	4ccc\	.
.	.	.	.	.	.	.	.	.	.	.	.	32C/	.	.	.	.	.	.	.	.	.	.	.	.	.
.	.	.	.	.	.	.	.	.	.	.	.	32C/	.	16cc\	.	(>16ee\	.	.	.	.	.	.	.	.	.
.	.	.	.	.	.	.	.	.	.	.	.	32C/	.	.	.	.	.	.	.	.	.	.	.	.	.
8C/	.	.	.	.	.	.	.	.	.	.	.	32C/	.	16dd\	.	16ff\	.	16e/L	.	16cc\L	.	.	.	.	.
.	.	.	.	.	.	.	.	.	.	.	.	32C/	.	.	.	.	.	.	.	.	.	.	.	.	.
.	.	.	.	.	.	.	.	.	.	.	.	32C/	.	16ee\JJ	.	16gg\JJ	.	16e/JJ	.	16cc\JJ	.	.	.	.	.
.	.	.	.	.	.	.	.	.	.	.	.	32C/	.	.	.	.	.	.	.	.	.	.	.	.	.
8C/	.	.	.	.	.	.	.	.	.	.	.	32C/	.	16ff\LL	.	16aa\LL	.	8e/L	.	8cc\L	.	4ee\	.	4ccc\	.
.	.	.	.	.	.	.	.	.	.	.	.	32C/	.	.	.	.	.	.	.	.	.	.	.	.	.
.	.	.	.	.	.	.	.	.	.	.	.	32C/	.	16gg\	.	16bb\	.	.	.	.	.	.	.	.	.
.	.	.	.	.	.	.	.	.	.	.	.	32C/	.	.	.	.	.	.	.	.	.	.	.	.	.
8C/J	.	.	.	.	.	.	.	.	.	.	.	32C/	.	16aa\	.	16ccc\	.	8e/J	.	8cc\J	.	.	.	.	.
.	.	.	.	.	.	.	.	.	.	.	.	32C/	.	.	.	.	.	.	.	.	.	.	.	.	.
.	.	.	.	.	.	.	.	.	.	.	.	32C/	.	16bb\JJ	.	16ddd\JJ)	.	.	.	.	.	.	.	.	.
.	.	.	.	.	.	.	.	.	.	.	.	32C/JJJ	.	.	.	.	.	.	.	.	.	.	.	.	.
=2	=2	=2	=2	=2	=2	=2	=2	=2	=2	=2	=2	=2	=2	=2	=2	=2	=2	=2	=2	=2	=2	=2	=2	=2	=2
*	*	*	*	*	*	*	*	*	*	*	*	*	*	*tremolo	*	*tremolo	*	*	*	*	*	*	*	*	*
!	!	!	!LO:TX:t=P:"V" przed kluczem:problem	!	!	!LO:TX:t=P:"V" przed kluczem:problem	!	!	!LO:TX:t=P:"V" zapisane jeszcze przed kluczem:problem	!	!	!	!	!	!	!	!	!	!	!	!	!	!	!	!
4C/	.	.	4C/	Ve-	.	4g/	Ve-	.	4ee\	Ve-	.	4C/^^	.	16ccc\'LL	.	16eee\'LL	.	4e/	.	4cc\	.	4ee\	.	4ccc\	.
.	.	.	.	.	.	.	.	.	.	.	.	.	.	16ccc\'	.	16eee\'	.	.	.	.	.	.	.	.	.
.	.	.	.	.	.	.	.	.	.	.	.	.	.	16ccc\'	.	16eee\'	.	.	.	.	.	.	.	.	.
.	.	.	.	.	.	.	.	.	.	.	.	.	.	16ccc\'JJ	.	16eee\'JJ	.	.	.	.	.	.	.	.	.
4r	.	.	8C/	-ni	.	8g/	-ni	.	8ee\	-ni	.	4r	.	16g\LL 16ee\	.	16ccc\'LL	.	4r	.	4r	.	4r	.	4r	.
.	.	.	.	.	.	.	.	.	.	.	.	.	.	16g\ 16ee\	.	16ccc\'	.	.	.	.	.	.	.	.	.
.	.	.	8C/	Cre-	.	8g/	Cre-	.	8ee\	Cre-	.	.	.	16g\ 16ee\	.	16ccc\'	.	.	.	.	.	.	.	.	.
.	.	.	.	.	.	.	.	.	.	.	.	.	.	16g\JJ 16ee\	.	16ccc\'JJ	.	.	.	.	.	.	.	.	.
4C/	.	.	2C/	-a-	.	2g/	-a-	.	2ee\	-a-	.	4C/	.	16g\LL 16ee\	.	16gg\'LL	.	4e/	.	4cc\	.	4cc\	.	4ee\	.
.	.	.	.	.	.	.	.	.	.	.	.	.	.	16g\ 16ee\	.	16gg\'	.	.	.	.	.	.	.	.	.
.	.	.	.	.	.	.	.	.	.	.	.	.	.	16g\ 16ee\	.	16gg\'	.	.	.	.	.	.	.	.	.
.	.	.	.	.	.	.	.	.	.	.	.	.	.	16g\ 16ee\	.	16gg\'JJ	.	.	.	.	.	.	.	.	.
4r	.	.	.	.	.	.	.	.	.	.	.	4r	.	16g\ 16ee\	.	16ee\'LL	.	4r	.	4r	.	4r	.	4r	.
.	.	.	.	.	.	.	.	.	.	.	.	.	.	16g\ 16ee\	.	16ee\'	.	.	.	.	.	.	.	.	.
.	.	.	.	.	.	.	.	.	.	.	.	.	.	16g\ 16ee\	.	16ee\'	.	.	.	.	.	.	.	.	.
.	.	.	.	.	.	.	.	.	.	.	.	.	.	16g\JJ 16ee\	.	16ee\'JJ	.	.	.	.	.	.	.	.	.
=3	=3	=3	=3	=3	=3	=3	=3	=3	=3	=3	=3	=3	=3	=3	=3	=3	=3	=3	=3	=3	=3	=3	=3	=3	=3
*Xtremolo	*	*	*	*	*	*	*	*	*	*	*	*	*	*	*	*	*	*	*	*	*	*	*	*	*
8C/L	.	.	4E\	-tor	.	4g/	-tor	.	4cc\	-tor	.	4C/	.	16cc\LL	.	16ccc\LL	.	4e/	.	4cc\	.	(>8cc\L	.	(>8ee\L	.
.	.	.	.	.	.	.	.	.	.	.	.	.	.	16ee\	.	16ccc\	.	.	.	.	.	.	.	.	.
8r	.	.	.	.	.	.	.	.	.	.	.	.	.	16dd\	.	16bb\	.	.	.	.	.	8ee\	.	8gg\	.
.	.	.	.	.	.	.	.	.	.	.	.	.	.	16cc\JJ	.	16aa\JJ	.	.	.	.	.	.	.	.	.
8C/J	.	.	4r	.	.	4r	.	.	4r	.	.	4r	.	16b\LL	.	16gg\LL	.	4r	.	4r	.	8dd#X\	.	8ff#X\	.
.	.	.	.	.	.	.	.	.	.	.	.	.	.	16a/	.	16ff\	.	.	.	.	.	.	.	.	.
8r	.	.	.	.	.	.	.	.	.	.	.	.	.	16g/	.	16ee\	.	.	.	.	.	8ee\J)	.	8gg\J)	.
.	.	.	.	.	.	.	.	.	.	.	.	.	.	16f/JJ	.	16dd\JJ	.	.	.	.	.	.	.	.	.
8C/	.	.	2r	.	.	2r	.	.	2r	.	.	4C/	.	4G/ 4e/	.	4cc\	.	4c/	.	4cc\	.	4r	p	4r	p
8r	.	.	.	.	.	.	.	.	.	.	.	.	.	.	.	.	.	.	.	.	.	.	.	.	.
!	!	!	!	!	!	!	!	!	!	!	!	!	!	!	!	!	!	!	!	!	!	!	!	!LO:TX:a:t=dolce	!
4r	.	.	.	.	.	.	.	.	.	.	.	4r	.	4r	.	4r	.	4r	.	4r	.	8.g/L	.	8.ee\L	.
.	.	.	.	.	.	.	.	.	.	.	.	.	.	.	.	.	.	.	.	.	.	.	.	.	.
.	.	p	.	.	.	.	.	.	.	.	.	.	.	.	p	.	.	.	.	.	.	16f/Jk	.	16dd\Jk	.
=4	=4	=4	=4	=4	=4	=4	=4	=4	=4	=4	=4	=4	=4	=4	=4	=4	=4	=4	=4	=4	=4	=4	=4	=4	=4
!	!	!	!	!	!	!	!	!	!	!	!	!	!	!	!	!LO:PB:g=original	!	!	!	!	!	!	!	!	!
!	!	!	!	!	!	!	!	!	!	!	!	!	!	!	!	!LO:TX:a:t=Veni Creator	!	!	!	!	!	!	!	!	!
4C/	.	.	1r	.	.	1r	.	.	1r	.	.	1r	.	(<8c/L	.	8G/L 8e/	p	1r	.	1r	.	4e/	.	4cc\	.
.	.	.	.	.	.	.	.	.	.	.	.	.	.	8e/	.	8g/	.	.	.	.	.	.	.	.	.
4r	.	.	.	.	.	.	.	.	.	.	.	.	.	8c/	.	8G/ 8e/	.	.	.	.	.	8.ee\L	.	8.gg\L	.
.	.	.	.	.	.	.	.	.	.	.	.	.	.	8e/J)	.	8g/J	.	.	.	.	.	.	.	.	.
.	.	.	.	.	.	.	.	.	.	.	.	.	.	.	.	.	.	.	.	.	.	16dd\Jk	.	16ff\Jk	.
4C/	.	.	.	.	.	.	.	.	.	.	.	.	.	4G/ 4e/	.	8e/L	.	.	.	.	.	4cc\	.	4ee\	.
.	.	.	.	.	.	.	.	.	.	.	.	.	.	.	.	8g/	.	.	.	.	.	.	.	.	.
4r	.	.	.	.	.	.	.	.	.	.	.	.	.	4r	.	8ee\	.	.	.	.	.	4r	.	4r	.
.	.	.	.	.	.	.	.	.	.	.	.	.	.	.	.	8cc\J	.	.	.	.	.	.	.	.	.
=5	=5	=5	=5	=5	=5	=5	=5	=5	=5	=5	=5	=5	=5	=5	=5	=5	=5	=5	=5	=5	=5	=5	=5	=5	=5
!	!	!LO:DY:rj	!	!	!	!	!	!	!	!	!	!	!	!	!LO:DY:rj	!	!	!	!	!	!	!	!	!	!
*tremolo	*	*	*	*	*	*	*	*	*	*	*	*	*	*	*	*	*	*	*	*	*	*tremolo	*	*tremolo	*
8A-X\L	5-	f	4A-X\	ve-	.	4cc\	ve-	.	4ee-X\	Ve-	.	32C/LLL	.	8c/'L 8a-X/	f	16a-X/LL	f	8c/L	.	8cc\L	.	8cc\'L	.	8aa-X\'L	.
.	.	.	.	.	.	.	.	.	.	.	.	32C/	.	.	.	.	.	.	.	.	.	.	.	.	.
.	.	.	.	.	.	.	.	.	.	.	.	32C/	.	.	.	16e-X/	.	.	.	.	.	.	.	.	.
.	.	.	.	.	.	.	.	.	.	.	.	32C/	.	.	.	.	.	.	.	.	.	.	.	.	.
8A-\	.	.	.	.	.	.	.	.	.	.	.	32C/	.	8c/' 8a-/	.	16f/	.	16c/L	.	16cc\L	.	8cc\'	.	8aa-\'	.
.	.	.	.	.	.	.	.	.	.	.	.	32C/	.	.	.	.	.	.	.	.	.	.	.	.	.
.	.	.	.	.	.	.	.	.	.	.	.	32C/	.	.	.	16g/JJ	.	16c/JJ	.	16cc\JJ	.	.	.	.	.
.	.	.	.	.	.	.	.	.	.	.	.	32C/	.	.	.	.	.	.	.	.	.	.	.	.	.
8A-\	.	.	8A-\	-ni	.	8cc\	-ni	.	8ee-\	-ni	.	32C/	.	8c/' 8a-/	.	16a-/LL	.	8c/L	.	8cc\L	.	8cc\'	.	8aa-\'	.
.	.	.	.	.	.	.	.	.	.	.	.	32C/	.	.	.	.	.	.	.	.	.	.	.	.	.
.	.	.	.	.	.	.	.	.	.	.	.	32C/	.	.	.	16g/	.	.	.	.	.	.	.	.	.
.	.	.	.	.	.	.	.	.	.	.	.	32C/	.	.	.	.	.	.	.	.	.	.	.	.	.
8A-\J	.	.	8A-\	Cre-	.	8cc\	Cre-	.	8ee-\	Cre-	.	32C/	.	8c/'J 8a-/	.	16a-/	.	8c/J	.	8cc\J	.	8cc\'J	.	8aa-\'J	.
.	.	.	.	.	.	.	.	.	.	.	.	32C/	.	.	.	.	.	.	.	.	.	.	.	.	.
.	.	.	.	.	.	.	.	.	.	.	.	32C/	.	.	.	16b-X\JJ	.	.	.	.	.	.	.	.	.
.	.	.	.	.	.	.	.	.	.	.	.	32C/	.	.	.	.	.	.	.	.	.	.	.	.	.
*	*	*	*	*	*	*	*	*	*	*	*	*	*	*	*	*	*	*tremolo	*	*tremolo	*	*	*	*	*
8A-\L	.	.	2A-\	-a-	.	2cc\	-a-	.	2ee-\	-a-	.	32C/	.	8c/L 8a-/	.	16cc\LL	.	8c/'L	.	8cc\'L	.	8cc\L	.	8aa-\L	.
.	.	.	.	.	.	.	.	.	.	.	.	32C/	.	.	.	.	.	.	.	.	.	.	.	.	.
.	.	.	.	.	.	.	.	.	.	.	.	32C/	.	.	.	16e-X/	.	.	.	.	.	.	.	.	.
.	.	.	.	.	.	.	.	.	.	.	.	32C/	.	.	.	.	.	.	.	.	.	.	.	.	.
8A-\	.	.	.	.	.	.	.	.	.	.	.	32C/	.	8c/ 8a-/	.	16f/	.	8c/'	.	8cc\'	.	8cc\	.	8aa-\	.
.	.	.	.	.	.	.	.	.	.	.	.	32C/	.	.	.	.	.	.	.	.	.	.	.	.	.
.	.	.	.	.	.	.	.	.	.	.	.	32C/	.	.	.	16g/JJ	.	.	.	.	.	.	.	.	.
.	.	.	.	.	.	.	.	.	.	.	.	32C/	.	.	.	.	.	.	.	.	.	.	.	.	.
8A-\	.	.	.	.	.	.	.	.	.	.	.	32C/	.	8c/ 8a-/	.	16a-X/LL	.	8c/'	.	8cc\'	.	8cc\	.	8aa-\	.
.	.	.	.	.	.	.	.	.	.	.	.	32C/	.	.	.	.	.	.	.	.	.	.	.	.	.
.	.	.	.	.	.	.	.	.	.	.	.	32C/	.	.	.	16b-X\J	.	.	.	.	.	.	.	.	.
.	.	.	.	.	.	.	.	.	.	.	.	32C/	.	.	.	.	.	.	.	.	.	.	.	.	.
8A-\J	.	.	.	.	.	.	.	.	.	.	.	32C/	.	8c/J 8a-/	.	8cc\J	.	8c/'J	.	8cc\'J	.	8cc\J	.	8aa-\J	.
.	.	.	.	.	.	.	.	.	.	.	.	32C/	.	.	.	.	.	.	.	.	.	.	.	.	.
.	.	.	.	.	.	.	.	.	.	.	.	32C/	.	.	.	.	.	.	.	.	.	.	.	.	.
.	.	.	.	.	.	.	.	.	.	.	.	32C/JJJ	.	.	.	.	.	.	.	.	.	.	.	.	.
=6	=6	=6	=6	=6	=6	=6	=6	=6	=6	=6	=6	=6	=6	=6	=6	=6	=6	=6	=6	=6	=6	=6	=6	=6	=6
!LO:PB:g=original	!	!	!	!	!	!	!	!	!	!	!	!	!	!	!	!	!	!	!	!	!	!	!	!	!
*	*	*	*	*	*	*	*	*	*	*	*	*	*	*	*	*	*	*Xtremolo	*	*Xtremolo	*	*	*	*	*
8A-X\L	5-	.	4A\	-tor	.	4a-X/	-tor	.	4cc\	-tor	.	4C/	.	8c/L 8a-X/	.	8ccc\`L	.	8c/L	.	8cc\L	.	8ee-X\	.	8ccc\	.
8A-\	.	.	.	.	.	.	.	.	.	.	.	.	.	8c/ 8a-/	.	(>32ff\LL	.	8r	.	8r	.	8r	.	8r	.
.	.	.	.	.	.	.	.	.	.	.	.	.	.	.	.	32ee-X\	.	.	.	.	.	.	.	.	.
.	.	.	.	.	.	.	.	.	.	.	.	.	.	.	.	32dd\	.	.	.	.	.	.	.	.	.
.	.	.	.	.	.	.	.	.	.	.	.	.	.	.	.	32ee-\JJJ)	.	.	.	.	.	.	.	.	.
8A-\	.	.	4r	.	.	4r	.	.	4r	.	.	4C/	.	8c/ 8a-/	.	8aa-X\`L	.	8c/	.	8cc\	.	8cc\	.	8aa-X\	.
8A-\J	.	.	.	.	.	.	.	.	.	.	.	.	.	8c/J 8a-/	.	(>32dd-X\LL	.	8r	.	8r	.	8r	.	8r	.
.	.	.	.	.	.	.	.	.	.	.	.	.	.	.	.	32cc\	.	.	.	.	.	.	.	.	.
.	.	.	.	.	.	.	.	.	.	.	.	.	.	.	.	32bn\	.	.	.	.	.	.	.	.	.
.	.	.	.	.	.	.	.	.	.	.	.	.	.	.	.	32cc\JJJ)	.	.	.	.	.	.	.	.	.
8A-\L	.	.	2r	.	.	2r	.	.	2r	.	.	4C/	.	8c/L 8a-/	.	16ee-X\LL	.	8c/J	.	8cc\J	.	8cc\	.	8ee-X\	.
!	!	!	!	!	!	!	!	!	!	!	!	!	!	!	!	!LO:TX:t=P:mixed beam:problem	!	!	!	!	!	!	!	!	!
.	.	.	.	.	.	.	.	.	.	.	.	.	.	.	.	16e/	.	.	.	.	.	.	.	.	.
8A-\	.	.	.	.	.	.	.	.	.	.	.	.	.	8c/ 8a-/	.	16f/	.	8r	.	8r	.	8r	.	8r	.
.	.	.	.	.	.	.	.	.	.	.	.	.	.	.	.	16g/JJ	.	.	.	.	.	.	.	.	.
!	!	!	!	!	!	!	!	!	!	!	!	!	!	!	!	!LO:PB:g=original	!	!	!	!	!	!	!	!	!
8A-\	.	.	.	.	.	.	.	.	.	.	.	4r	.	8c/ 8a-/	.	16a-X/LL	.	4r	.	4r	.	8a-X/	.	8cc\	.
.	.	.	.	.	.	.	.	.	.	.	.	.	.	.	.	16b\J	.	.	.	.	.	.	.	.	.
8A-\J	.	.	.	.	.	.	.	.	.	.	.	.	.	8c/J 8a-/	.	8cc\J	.	.	.	.	.	8r	.	8r	.
=7	=7	=7	=7	=7	=7	=7	=7	=7	=7	=7	=7	=7	=7	=7	=7	=7	=7	=7	=7	=7	=7	=7	=7	=7	=7
!	!	!	!	!	!	!	!	!	!	!	!	!	!	!LO:PB:g=original	!	!	!	!	!	!	!	!	!	!	!
8D-X\L	7n 5-	.	4Bn\	ve-	.	4a-X/	{ve-	.	4ff\	ve-	.	32C/LLL	.	16a-XLL\	.	16dd-X\LL 16bbn\	.	1r	.	1r	.	8ff\L	.	8bbn\'L	.
.	.	.	.	.	.	.	.	.	.	.	.	32C/	.	.	.	.	.	.	.	.	.	.	.	.	.
.	.	.	.	.	.	.	.	.	.	.	.	32C/	.	16a-/	.	16dd-\ 16bb\	.	.	.	.	.	.	.	.	.
.	.	.	.	.	.	.	.	.	.	.	.	32C/	.	.	.	.	.	.	.	.	.	.	.	.	.
8D-\	.	.	.	.	.	.	.	.	.	.	.	32C/	.	16a-/	.	16dd-\ 16bb\	.	.	.	.	.	8ff\	.	8bb\'	.
.	.	.	.	.	.	.	.	.	.	.	.	32C/	.	.	.	.	.	.	.	.	.	.	.	.	.
.	.	.	.	.	.	.	.	.	.	.	.	32C/	.	16a-/	.	16dd-\ 16bb\	.	.	.	.	.	.	.	.	.
.	.	.	.	.	.	.	.	.	.	.	.	32C/	.	.	.	.	.	.	.	.	.	.	.	.	.
8D-\	.	.	8B\	-ni	.	8a-/	-ni	.	8ff\	-ni	.	32C/	.	16a-/	.	16dd-\ 16bb\	.	.	.	.	.	8ff\	.	8bb\'	.
.	.	.	.	.	.	.	.	.	.	.	.	32C/	.	.	.	.	.	.	.	.	.	.	.	.	.
.	.	.	.	.	.	.	.	.	.	.	.	32C/	.	16a-/	.	16dd-\ 16bb\	.	.	.	.	.	.	.	.	.
.	.	.	.	.	.	.	.	.	.	.	.	32C/	.	.	.	.	.	.	.	.	.	.	.	.	.
8D-\J	.	.	8B\	Cre-	.	8a-/	Cre-	.	8ff\	Cre-	.	32C/	.	16a-/	.	16dd-\ 16bb\	.	.	.	.	.	8ff\J	.	8bb\'J	.
.	.	.	.	.	.	.	.	.	.	.	.	32C/	.	.	.	.	.	.	.	.	.	.	.	.	.
.	.	.	.	.	.	.	.	.	.	.	.	32C/	.	16a-/JJ	.	16dd-\JJ 16bb\	.	.	.	.	.	.	.	.	.
.	.	.	.	.	.	.	.	.	.	.	.	32C/	.	.	.	.	.	.	.	.	.	.	.	.	.
8D-\L	.	.	2B\	-a-	.	2a-/	-a-	.	2ff\	-a-	.	32C/	.	16a-LL\	.	16dd-\LL 16bb\	.	.	.	.	.	8ff\L	.	8bb\L	.
.	.	.	.	.	.	.	.	.	.	.	.	32C/	.	.	.	.	.	.	.	.	.	.	.	.	.
.	.	.	.	.	.	.	.	.	.	.	.	32C/	.	16a-/	.	16dd-\ 16bb\	.	.	.	.	.	.	.	.	.
.	.	.	.	.	.	.	.	.	.	.	.	32C/	.	.	.	.	.	.	.	.	.	.	.	.	.
8D-\	.	.	.	.	.	.	.	.	.	.	.	32C/	.	16a-/	.	16dd-\ 16bb\	.	.	.	.	.	8ff\	.	8bb\	.
.	.	.	.	.	.	.	.	.	.	.	.	32C/	.	.	.	.	.	.	.	.	.	.	.	.	.
.	.	.	.	.	.	.	.	.	.	.	.	32C/	.	16a-/	.	16dd-\ 16bb\	.	.	.	.	.	.	.	.	.
.	.	.	.	.	.	.	.	.	.	.	.	32C/	.	.	.	.	.	.	.	.	.	.	.	.	.
8D-\	.	.	.	.	.	.	.	.	.	.	.	32C/	.	16a-/	.	16dd-\ 16bb\	.	.	.	.	.	8ff\	.	8bb\	.
.	.	.	.	.	.	.	.	.	.	.	.	32C/	.	.	.	.	.	.	.	.	.	.	.	.	.
.	.	.	.	.	.	.	.	.	.	.	.	32C/	.	16a-/	.	16dd-\ 16bb\	.	.	.	.	.	.	.	.	.
.	.	.	.	.	.	.	.	.	.	.	.	32C/	.	.	.	.	.	.	.	.	.	.	.	.	.
8D-\J	.	.	.	.	.	.	.	.	.	.	.	32C/	.	16a-/	.	16dd-\ 16bb\	.	.	.	.	.	8ff\J	.	8bb\J	.
.	.	.	.	.	.	.	.	.	.	.	.	32C/	.	.	.	.	.	.	.	.	.	.	.	.	.
.	.	.	.	.	.	.	.	.	.	.	.	32C/	.	16a-/JJ	.	16dd-\JJ 16bb\	.	.	.	.	.	.	.	.	.
.	.	.	.	.	.	.	.	.	.	.	.	32C/JJJ	.	.	.	.	.	.	.	.	.	.	.	.	.
=8	=8	=8	=8	=8	=8	=8	=8	=8	=8	=8	=8	=8	=8	=8	=8	=8	=8	=8	=8	=8	=8	=8	=8	=8	=8
4C/	5	.	4c\	-tor	.	4g/	-tor}	.	4ee\	-tor	.	4C/	.	4G/ 4e/	.	4een\ 4ccc\	<	4e/	.	4cc\	.	4ee\	.	4ccc\	.
*	*	*	*	*	*	*	*	*	*	*	*	*	*	*	*	*Xtremolo	*	*	*	*	*	*	*	*	*
4r	.	.	4r	.	.	4r	.	.	4r	.	.	4r	.	4r	.	8r	.	8r	.	8r	.	4r	.	4r	.
!	!	!	!	!	!	!	!	!	!	!	!	!	!	!	!	!LO:TX:b:t=Cornu	!	!	!	!	!	!	!	!	!
.	.	.	.	.	.	.	.	.	.	.	.	.	.	.	.	16g/LL	.	16g/LL	.	16g/LL	.	.	.	.	.
.	.	.	.	.	.	.	.	.	.	.	.	.	.	.	.	16g/JJ	.	16g/JJ	.	16g/JJ	.	.	.	.	.
*	*	*	*	*	*	*	*	*	*	*	*	*	*	*	*	*tremolo	*	*tremolo	*	*tremolo	*	*	*	*	*
2r	.	.	2r	.	.	2r	.	.	2r	.	.	2r	.	2r	.	8g/'L	.	8g/'L	.	8g/'L	.	2r	.	2r	.
.	.	.	.	.	.	.	.	.	.	.	.	.	.	.	.	8g/'	.	8g/'	.	8g/'	.	.	.	.	.
.	.	.	.	.	.	.	.	.	.	.	.	.	.	.	.	8g/'	.	8g/'	.	8g/'	.	.	.	.	.
.	.	.	.	.	.	.	.	.	.	.	.	.	.	.	.	.	.	.	.	.	.	.	.	.	.
.	.	p	.	.	.	.	.	.	.	.	.	.	.	.	p	8g/'J	.	8g/'J	.	8g/'J	.	.	.	.	.
=9	=9	=9	=9	=9	=9	=9	=9	=9	=9	=9	=9	=9	=9	=9	=9	=9	=9	=9	=9	=9	=9	=9	=9	=9	=9
!	!	!	!	!	!	!	!	!	!	!	!	!	!	!	!	!	!	!LO:TX:a:t=Cornu	!LO:DY:rj	!LO:TX:a:t=Cornu	!	!LO:PB:g=original	!	!	!
*	*	*	*	*	*	*	*	*	*	*	*	*	*	*Xtremolo	*	*	*	*	*	*	*	*	*	*	*
4G\	5	.	4G\	Ve-	.	4g/	Ve-	.	4g/	Ve-	.	1r	.	8Bn/L 8d/	.	8gL\	.	4g/	p	4dd\	p	4dd\	.	4ff\	.
.	.	.	.	.	.	.	.	.	.	.	.	.	.	8r	.	8g/	.	.	.	.	.	.	.	.	.
4r	.	.	8G\	-ni	.	8g/	-ni	.	8b\	-ni	.	.	.	8B/J 8d/	.	8bn\	.	4g/	.	4dd\	.	4dd\	.	4ff\	.
.	.	.	8G\	Cre-	.	8g/	Cre-	.	8dd\	Cre-	.	.	.	8r	.	8dd\J	.	.	.	.	.	.	.	.	.
4G\	.	.	4G\	-a-	.	4b\	-a-	.	4ff\	-a-	.	.	.	8d/L 8b/	.	8r	[	4g/	.	4dd\	.	4dd\	.	4ff\	.
.	.	.	.	.	.	.	.	.	.	.	.	.	.	8r	.	8ff\L	.	.	.	.	.	.	.	.	.
4r	.	.	4F\	-tor	.	4g/	-tor	.	4b\	-tor	.	.	.	8d/J 8b/	.	8r	.	4r	.	4r	.	4r	.	4r	.
.	.	.	.	.	.	.	.	.	.	.	.	.	.	8r	.	8b\J	.	.	.	.	.	.	.	.	.
=10	=10	=10	=10	=10	=10	=10	=10	=10	=10	=10	=10	=10	=10	=10	=10	=10	=10	=10	=10	=10	=10	=10	=10	=10	=10
!	!	!	!LO:PB:g=original	!	!	!LO:PB:g=original	!	!	!LO:PB:g=original	!	!	!	!	!	!	!	!	!LO:PB:g=original	!	!LO:PB:g=original	!	!	!	!LO:PB:g=original	!
*Xtremolo	*	*	*	*	*	*	*	*	*	*	*	*	*	*tremolo	*	*	*	*	*	*	*	*	*	*	*
8C/L	.	.	8.E\	Spi-	.	8.e/	Spi-	.	8.dd\	Spi-	.	1r	.	(<8c/L	.	8e/L	.	4e/	.	4cc\	.	1r	.	2r	.
8r	.	.	.	.	.	.	.	.	.	.	.	.	.	8e/	.	8g/	.	.	.	.	.	.	.	.	.
.	.	.	16C/	-ri-	.	16e/	-ri-	.	16cc\	-ri-	.	.	.	.	.	.	.	.	.	.	.	.	.	.	.
8C/J	.	.	4C/	-tus	.	4e/	-tus,	.	4cc\	-tus	.	.	.	8c/	.	8e/	.	4e/	.	4cc\	.	.	.	.	.
8r	.	.	.	.	.	.	.	.	.	.	.	.	.	8e/J)	.	8g/J	.	.	.	.	.	.	.	.	.
4C/	.	.	2r	.	.	2r	.	.	2r	.	.	.	.	4c/	.	4e/	.	4e/	.	4cc\	.	.	.	8r	p
.	.	.	.	.	.	.	.	.	.	.	.	.	.	.	.	.	.	.	.	.	.	.	.	16aa\LL	.
.	.	.	.	.	.	.	.	.	.	.	.	.	.	.	.	.	.	.	.	.	.	.	.	16gg\JJ	.
4r	.	.	.	.	.	.	.	.	.	.	.	.	.	4r	.	4r	.	4r	.	4r	.	.	.	(>16ff\LL	.
.	.	.	.	.	.	.	.	.	.	.	.	.	.	.	.	.	.	.	.	.	.	.	.	16ee\	.
!	!	!	!	!	!	!	!	!	!	!	!	!	!	!	!	!	!	!	!	!	!	!	!	!LO:SIC:v= niejednoznaczny koniec łuku	!
.	.	.	.	.	.	.	.	.	.	.	.	.	.	.	.	.	.	.	.	.	.	.	.	16dd\)	.
.	.	.	.	.	.	.	.	.	.	.	.	.	.	.	.	.	p	.	.	.	.	.	.	16cc\JJ	.
=11	=11	=11	=11	=11	=11	=11	=11	=11	=11	=11	=11	=11	=11	=11	=11	=11	=11	=11	=11	=11	=11	=11	=11	=11	=11
*	*	*	*	*	*	*	*	*	*	*	*	*	*	*	*	*Xtremolo	*	*	*	*	*	*	*	*	*
4G\	.	.	4G\	men-	.	(>8dd\L	men-	.	(>8ff\L	men-	.	1r	.	8f/L	.	8g/L 8b/	.	4g/	.	4dd\	.	2r	.	2gg\T	.
.	.	.	.	.	.	8cc#X\J)	.	.	8ee\J)	.	.	.	.	8r	.	8r	.	.	.	.	.	.	.	.	.
4r	.	.	4G\	-tes	.	4dd\	-tes	.	4ff\	-tes,	.	.	.	8d/J	.	8g/J 8b/	.	4r	.	4r	.	.	.	.	.
.	.	.	.	.	.	.	.	.	.	.	.	.	.	8r	.	8r	.	.	.	.	.	.	.	.	.
4GG/	.	.	8r	.	.	8r	.	.	8r	.	.	.	.	8f/L	.	8g/L 8b/	.	4g/	.	4dd\	.	8r	.	8r	.
.	.	.	8F\	tu-	.	8b\	tu-	.	8dd\	tu-	.	.	.	8r	.	8r	.	.	.	.	.	8b\L	.	8dd\L	.
!	!	!	!	!	!	!LO:SIC:v= c# zamiast c	!	!	!	!	!	!	!	!	!	!	!	!	!	!	!	!	!	!	!
4r	.	.	8E\	-o-	.	8cc#\	-o-	.	8ee\	-o-	.	.	.	8d/J	.	8g/J 8b/	.	4r	.	4r	.	8cc\	.	8ee\	.
.	.	.	8D\	-rum	.	8dd\	-rum	.	8ff\	-rum	.	.	.	8r	.	8r	.	.	.	.	.	8dd\J	.	8ff\J	.
=12	=12	=12	=12	=12	=12	=12	=12	=12	=12	=12	=12	=12	=12	=12	=12	=12	=12	=12	=12	=12	=12	=12	=12	=12	=12
!LO:PB:g=original	!	!	!	!	!	!	!	!	!	!	!	!	!	!	!	!LO:PB:g=original	!	!	!	!	!	!	!	!	!
*	*	*	*	*	*	*	*	*	*	*	*	*	*	*Xtremolo	*	*	*	*	*	*	*	*	*	*	*
8C/L	.	.	8.C/	vi-	.	8.g/	vi-	.	8.ee\	vi-	.	1r	.	8e/L	.	8g\L 8cc\	<	4e/	.	4cc\	.	4r	.	4r	.
8r	.	.	.	.	.	.	.	.	.	.	.	.	.	8r	.	8r	.	.	.	.	.	.	.	.	.
.	.	.	16C/	-si-	.	16f/	-si-	.	16dd\	-si-	.	.	.	.	.	.	.	.	.	.	.	.	.	.	.
8C/	.	.	4C/	-ta	.	4e/	-ta	.	4cc\	-ta	.	.	.	8e/J	.	8g/J 8cc/	.	4e/	.	4cc\	.	8.g/L	.	8.ee\L	.
8r	.	.	.	.	.	.	.	.	.	.	.	.	.	8r	.	8r	.	.	.	.	.	.	.	.	.
.	.	.	.	.	.	.	.	.	.	.	.	.	.	.	.	.	.	.	.	.	.	16f/Jk	.	16dd\Jk	.
8C/J	.	.	8r	.	.	8r	.	.	8r	.	.	.	.	8e/L	.	8g\L 8cc\	.	4e/	.	4cc\	.	4e/	.	4cc\	.
8r	.	.	8C/	tu-	.	8e/	tu-	.	8cc\	tu-	.	.	.	8r	.	8r	.	.	.	.	.	.	.	.	.
4r	.	.	8C/	-o-	.	8f/	-o-	.	8dd\	-o-	.	.	.	8e/J	.	8g/J 8cc/	.	4r	.	4r	.	4r	.	4r	.
.	.	.	8C/	-rum	.	8g/	-rum	.	8ee\	-rum	.	.	.	8r	.	8r	.	.	.	.	.	.	.	.	.
=13	=13	=13	=13	=13	=13	=13	=13	=13	=13	=13	=13	=13	=13	=13	=13	=13	=13	=13	=13	=13	=13	=13	=13	=13	=13
4C/	4 2	.	4G\	men-	.	4f/	men-	.	4dd\	men-	.	2r	.	8g/L	.	16gLL\	.	2r	.	2r	.	2r	.	2r	.
.	.	.	.	.	.	.	.	.	.	.	.	.	.	.	.	16g/	.	.	.	.	.	.	.	.	.
.	.	.	.	.	.	.	.	.	.	.	.	.	.	8g/J	.	16b\	.	.	.	.	.	.	.	.	.
.	.	.	.	.	.	.	.	.	.	.	.	.	.	.	.	16b\JJ	.	.	.	.	.	.	.	.	.
*	*	*	*	*	*	*	*	*	*	*	*	*	*	*tremolo	*	*	*	*	*	*	*	*	*	*	*
!	!	!	!	!	!	!	!	!	!	!	!	!	!	!	!LO:HP:a	!	!	!	!	!	!	!	!	!	!
4r	3	.	4G\	-tes	.	4f/	-tes	.	4dd\	-tes	.	.	.	16d/LL 16b/	<	16dd\LL	.	.	.	.	.	.	.	.	.
.	.	.	.	.	.	.	.	.	.	.	.	.	.	16d/ 16b/	.	16dd\	.	.	.	.	.	.	.	.	.
.	.	.	.	.	.	.	.	.	.	.	.	.	.	16d/ 16b/	.	16gg\	.	.	.	.	.	.	.	.	.
.	.	.	.	.	.	.	.	.	.	.	.	.	.	16d/ 16b/	.	16gg\JJ	[	.	.	.	.	.	.	.	.
4G\	.	.	4.G\	vi-	.	4.f/	vi-	.	4.dd\	vi-	.	8r	.	16d/ 16b/	.	16dd\LL	.	8r	.	8r	.	8r	.	8r	.
.	.	.	.	.	.	.	.	.	.	.	.	.	.	16d/ 16b/	.	16dd\	.	.	.	.	.	.	.	.	.
*	*	*	*	*	*	*	*	*	*	*	*	*Xtremolo	*	*	*	*	*	*Xtremolo	*	*Xtremolo	*	*	*	*	*
.	.	.	.	.	.	.	.	.	.	.	.	8GG/L	.	16d/ 16b/	.	16gg\	.	8g/L	.	8dd\L	.	8g/L	.	8gg\L	.
.	.	.	.	.	.	.	.	.	.	.	.	.	.	16d/ 16b/	.	16gg\JJ	.	.	.	.	.	.	.	.	.
!	!	!	!	!	!	!	!	!	!	!	!	!	!	!	!	!	!	!	!	!	!	!LO:TX:t=P:mixed beam:problem	!	!	!
4r	.	.	.	.	.	.	.	.	.	.	.	8GG/	.	16d/ 16b/	.	16bb\LL	.	8g/	.	8dd\	.	8ff\	.	8aa\	.
.	.	.	.	.	.	.	.	.	.	.	.	.	.	16d/ 16b/	.	16bb\	.	.	.	.	.	.	.	.	.
.	.	.	8G\	-si-	.	8f/	-si-	.	8dd\	-si-	.	8GG/J	.	16d/ 16b/	.	16ddd\	.	8g/J	.	8dd\J	.	8dd\J	.	8bb\J	.
.	.	.	.	.	.	.	.	.	.	.	.	.	.	16d/JJ 16b/	[	16ddd\JJ	.	.	.	.	.	.	.	.	.
.	.	.	.	.	.	.	.	.	.	.	.	.	.	.	.	.	f	.	.	.	.	.	.	.	.
=14	=14	=14	=14	=14	=14	=14	=14	=14	=14	=14	=14	=14	=14	=14	=14	=14	=14	=14	=14	=14	=14	=14	=14	=14	=14
!	!	!	!	!	!	!	!	!	!	!	!	!	!	!	!LO:DY:rj	!LO:TX:t=P:mixed beam:problem	!	!	!	!	!	!	!	!	!
8C/L	.	.	4C/	-ta	.	4e/	-ta,	.	4cc\	-ta,	.	4C/	.	8g/L	p	8ccc\'L	.	4e/	.	4cc\	.	4ee\	.	4ccc\	.
8r	.	.	.	.	.	.	.	.	.	.	.	.	.	(<8e/	.	8g/`J	p	.	.	.	.	.	.	.	.
8C/J	.	.	4r	.	.	4r	.	.	4r	.	.	4r	.	8d#X/	.	(<8f#X/L	.	4r	.	4r	.	4r	.	4r	.
8r	.	.	.	.	.	.	.	.	.	.	.	.	.	8e/J)	.	8g/J)	.	.	.	.	.	.	.	.	.
8C/	.	.	2r	.	.	2r	.	.	2r	.	.	2r	.	4c/	.	4e/	.	2r	.	2r	.	2r	.	8r	p
8r	.	.	.	.	.	.	.	.	.	.	.	.	.	.	.	.	.	.	.	.	.	.	.	16aa\LL	.
.	.	.	.	.	.	.	.	.	.	.	.	.	.	.	.	.	.	.	.	.	.	.	.	(>16gg\JJ	.
4r	.	.	.	.	.	.	.	.	.	.	.	.	.	4r	.	4r	.	.	.	.	.	.	.	16ff\LL	.
.	.	.	.	.	.	.	.	.	.	.	.	.	.	.	.	.	.	.	.	.	.	.	.	16ee\	.
.	.	.	.	.	.	.	.	.	.	.	.	.	.	.	.	.	.	.	.	.	.	.	.	16dd\)	.
.	.	.	.	.	.	.	.	.	.	.	.	.	.	.	.	.	.	.	.	.	.	.	.	16cc\JJ	.
=15	=15	=15	=15	=15	=15	=15	=15	=15	=15	=15	=15	=15	=15	=15	=15	=15	=15	=15	=15	=15	=15	=15	=15	=15	=15
!	!	!	!	!	!	!	!	!	!	!	!	!LO:PB:g=original	!	!LO:PB:g=original	!	!	!	!	!	!	!	!	!	!	!
*	*	*	*	*	*	*	*	*	*	*	*	*	*	*Xtremolo	*	*	*	*	*	*	*	*	*	*	*
4G\	.	.	4G\	men-	.	(>8dd\L	men-	.	(>8ff\L	men-	.	1r	.	8G/L 8f/	.	8d/L 8b/	.	2g/	.	2dd\	.	2r	.	2gg\T	.
.	.	.	.	.	.	8cc#X\J)	.	.	8ee\J)	.	.	.	.	8r	.	8r	.	.	.	.	.	.	.	.	.
4r	.	.	4G\	-tes	.	4dd\	-tes	.	4ff\	-tes	.	.	.	8f/	.	8d/ 8b/	.	.	.	.	.	.	.	.	.
.	.	.	.	.	.	.	.	.	.	.	.	.	.	8r	.	8r	.	.	.	.	.	.	.	.	.
!	!	!	!	!	!	!	!	!	!LO:PB:g=original	!	!	!	!	!	!	!	!	!	!	!	!	!	!	!	!
4G\	.	.	8r	.	.	8r	.	.	8r	.	.	.	.	8G/ 8f/	.	8d/ 8b/	.	2r	.	2r	.	8r	.	8r	.
.	.	.	8F\	tu-	.	8b\	tu-	.	8dd\	tu-	.	.	.	8r	.	8r	.	.	.	.	.	8b\L	.	8dd\L	.
!	!	!	!	!	!	!LO:SIC:v=c# zamiast c	!	!	!	!	!	!	!	!	!	!	!	!	!	!	!	!	!	!	!
4r	.	.	8E\	-o-	.	8cc#\	-o-	.	8ee\	-o-	.	.	.	8f/J	.	8d/J 8b/	.	.	.	.	.	8cc\	.	8ee\	.
.	.	.	8D\	-rum	.	8dd\	-rum	.	8ff\	-rum	.	.	.	8r	.	8r	.	.	.	.	.	8dd\J	.	8ff\J	.
=16	=16	=16	=16	=16	=16	=16	=16	=16	=16	=16	=16	=16	=16	=16	=16	=16	=16	=16	=16	=16	=16	=16	=16	=16	=16
!	!	!	!	!	!	!LO:PB:g=original	!	!	!	!	!	!	!	!	!	!	!	!	!	!	!	!	!	!	!
8C/L	.	.	8.C/	vi-	.	8.g/	vi-	.	8.ee\	vi-	.	1r	.	8g/L	.	8e/L 8cc/	.	4r	.	4r	.	4r	.	4r	.
8r	.	.	.	.	.	.	.	.	.	.	.	.	.	8r	.	8r	.	.	.	.	.	.	.	.	.
.	.	.	16C/	-si-	.	16f/	-si-	.	16dd\	-sita	.	.	.	.	.	.	.	.	.	.	.	.	.	.	.
8C/J	.	.	4C/	-ta	.	4e/	-ta	.	4cc\	.	.	.	.	8g/	.	8e/ 8cc/	.	4e/	.	4cc\	.	8.g/L	.	8.ee\L	.
8r	.	.	.	.	.	.	.	.	.	.	.	.	.	8r	.	8r	.	.	.	.	.	.	.	.	.
.	.	.	.	.	.	.	.	.	.	.	.	.	.	.	.	.	.	.	.	.	.	16f/Jk	.	16dd\Jk	.
!	!	!	!LO:PB:g=original	!	!	!	!	!	!	!	!	!	!	!	!	!	!	!	!	!	!	!	!	!	!
8C/	.	.	8r	.	.	8r	.	.	8r	.	.	.	.	8g/	.	8e/ 8cc/	.	4e/	.	4cc\	.	4e/	.	4cc\	.
8r	.	.	8C/	tu-	.	8e/	tu-	.	8cc\	tu-	.	.	.	8r	.	8r	.	.	.	.	.	.	.	.	.
4r	.	.	8C/	-o-	.	8f/	-o-	.	8dd\	-o-	.	.	.	8g/J	.	8e/J 8cc/	.	4r	.	4r	.	4r	.	4r	.
.	.	.	8C/	-rum	.	8g/	-rum	.	8ee\	-rum	.	.	.	8r	.	8r	.	.	.	.	.	.	.	.	.
=17	=17	=17	=17	=17	=17	=17	=17	=17	=17	=17	=17	=17	=17	=17	=17	=17	=17	=17	=17	=17	=17	=17	=17	=17	=17
!LO:PB:g=original	!	!	!	!	!	!	!	!	!	!	!	!	!	!	!	!LO:PB:g=original	!	!	!	!	!	!	!	!	!
4C/	2	.	4G\	men-	.	4f/	men-	.	4dd\	men-	.	2r	p	8g/L	.	16g/LL	.	1r	.	1r	.	4b\	.	4gg\	.
.	.	.	.	.	.	.	.	.	.	.	.	.	.	.	.	16g/	.	.	.	.	.	.	.	.	.
.	.	.	.	.	.	.	.	.	.	.	.	.	.	8g/J	.	16b\	.	.	.	.	.	.	.	.	.
.	.	.	.	.	.	.	.	.	.	.	.	.	.	.	.	16b\JJ	.	.	.	.	.	.	.	.	.
*	*	*	*	*	*	*	*	*	*	*	*	*tremolo	*	*tremolo	*	*	*	*	*	*	*	*	*	*	*
!	!	!	!	!	!	!	!	!	!	!	!	!	!	!	!LO:HP:a	!	!	!	!	!	!	!	!	!	!
4r	.	.	4G\	-tes	.	4f/	-tes	.	4dd\	-tes	.	.	.	16d\LL 16b\	<	16dd\LL	.	.	.	.	.	4dd\	.	4bb\	.
.	.	.	.	.	.	.	.	.	.	.	.	.	.	16d/ 16b/	.	16dd\	.	.	.	.	.	.	.	.	.
.	.	.	.	.	.	.	.	.	.	.	.	.	.	16d/ 16b/	.	16gg\	.	.	.	.	.	.	.	.	.
.	.	.	.	.	.	.	.	.	.	.	.	.	.	16d/ 16b/	.	16gg\JJ	.	.	.	.	.	.	.	.	.
4G\	3	.	(>4G\	vi-	.	4.f/	vi-	.	4.dd\	vi-	.	32GG/LLL	<	16d/ 16b/	.	16dd\LL	.	.	.	.	.	4dd\	.	4bb\	.
.	.	.	.	.	.	.	.	.	.	.	.	32GG/	.	.	.	.	.	.	.	.	.	.	.	.	.
.	.	.	.	.	.	.	.	.	.	.	.	32GG/	.	16d/ 16b/	.	16dd\	.	.	.	.	.	.	.	.	.
.	.	.	.	.	.	.	.	.	.	.	.	32GG/	.	.	.	.	.	.	.	.	.	.	.	.	.
.	.	.	.	.	.	.	.	.	.	.	.	32GG/	.	16d/ 16b/	.	16gg\	.	.	.	.	.	.	.	.	.
.	.	.	.	.	.	.	.	.	.	.	.	32GG/	.	.	.	.	.	.	.	.	.	.	.	.	.
.	.	.	.	.	.	.	.	.	.	.	.	32GG/	.	16d/ 16b/	.	16gg\JJ	.	.	.	.	.	.	.	.	.
.	.	.	.	.	.	.	.	.	.	.	.	32GG/	.	.	.	.	.	.	.	.	.	.	.	.	.
4r	.	.	8F\)	.	.	.	.	.	.	.	.	32GG/	.	16d/ 16b/	.	16bb\LL	.	.	.	.	.	4dd\	.	4bb\	.
.	.	.	.	.	.	.	.	.	.	.	.	32GG/	.	.	.	.	.	.	.	.	.	.	.	.	.
.	.	.	.	.	.	.	.	.	.	.	.	32GG/	.	16d/ 16b/	.	16bb\	.	.	.	.	.	.	.	.	.
.	.	.	.	.	.	.	.	.	.	.	.	32GG/	.	.	.	.	.	.	.	.	.	.	.	.	.
.	.	.	8D\	-si-	.	8f/	-si-	.	8dd\	-si-	.	32GG/	.	16d/ 16b/	.	16ddd\	.	.	.	.	.	.	.	.	.
.	.	.	.	.	.	.	.	.	.	.	.	32GG/	.	.	.	.	.	.	.	.	.	.	.	.	.
.	.	.	.	.	.	.	.	.	.	.	.	32GG/	.	16d/JJ 16b/	[	16ddd\JJ	.	.	.	.	.	.	.	.	.
.	.	.	.	.	.	.	.	.	.	.	.	32GG/JJJ	[[	.	.	.	.	.	.	.	.	.	.	.	.
.	.	ff	.	.	.	.	.	.	.	.	.	.	.	.	.	.	ff	.	f	.	.	.	.	.	.
=18	=18	=18	=18	=18	=18	=18	=18	=18	=18	=18	=18	=18	=18	=18	=18	=18	=18	=18	=18	=18	=18	=18	=18	=18	=18
!	!	!	!	!	!	!	!	!	!	!	!	!	!	!	!LO:DY:rj	!	!	!LO:TX:a:t=Clarini	!	!LO:TX:a:t=Clarini	!	!	!	!LO:PB:g=original	!
4C/	5	.	4C/	-ta,	.	4e/	-ta	.	4cc\	-ta,	.	4C/	p	4G/^^ 4e/	f	4ee\^^ 4ccc\	.	4c/	.	4cc\	f	4ee\	.	4ccc\	.
8r	.	.	4r	.	.	4r	.	.	4r	.	.	8r	.	8r	.	8r	.	8r	.	8r	.	8r	.	8r	.
*	*	*	*	*	*	*	*	*	*	*	*	*Xtremolo	*	*Xtremolo	*	*	*	*	*	*	*	*Xtremolo	*	*Xtremolo	*
16C/LL	6n 3-	.	.	.	.	.	.	.	.	.	.	16C/LL	.	16a-XLL\	.	16e-X/'LL 16cc/	.	16c/LL	.	16cc\LL	.	16cc\LL	.	16aa-X\'LL	.
16C/JJ	.	.	.	.	.	.	.	.	.	.	.	16C/JJ	.	16a-/JJ	.	16e-/'JJ 16cc/	.	16c/JJ	.	16cc\JJ	.	16cc\JJ	.	16aa-\'JJ	.
*tremolo	*	*	*	*	*	*	*	*	*	*	*	*tremolo	*	*tremolo	*	*tremolo	*	*tremolo	*	*tremolo	*	*tremolo	*	*tremolo	*
8C/'L	.	.	2r	.	.	2r	.	.	2r	.	.	8C/'L	.	8a-'L\	.	8e-/'L 8cc/	.	8c/'L	.	8cc\'L	.	8cc\'L	.	8aa-\L	.
8C/'	.	.	.	.	.	.	.	.	.	.	.	8C/'	.	8a-/'	.	8e-/' 8cc/	.	8c/'	.	8cc\'	.	8cc\'	.	8aa-\	.
8C/'	.	.	.	.	.	.	.	.	.	.	.	8C/'	.	8a-/'	.	8e-/' 8cc/	.	8c/'	.	8cc\'	.	8cc\'	.	8aa-\	.
8C/'J	.	.	.	.	.	.	.	.	.	.	.	8C/'J	.	8a-/'J	.	8e-/'J 8cc/	.	8c/'J	.	8cc\'J	.	8cc\'J	.	8aa-\J	.
=19	=19	=19	=19	=19	=19	=19	=19	=19	=19	=19	=19	=19	=19	=19	=19	=19	=19	=19	=19	=19	=19	=19	=19	=19	=19
*Xtremolo	*	*	*	*	*	*	*	*	*	*	*	*	*	*	*	*	*	*	*	*	*	*Xtremolo	*	*	*
4C/	9 5# 3-	.	1r	.	.	1r	.	.	1r	.	.	4C/	.	4A/^^ 4an/	.	4e-X/^^ 4cc#X/	.	4c/	.	4cc\	.	4ff#X\	.	4aan\	.
8r	.	.	.	.	.	.	.	.	.	.	.	8r	.	8r	.	8r	.	8r	.	8r	.	8r	.	8r	.
*	*	*	*	*	*	*	*	*	*	*	*	*Xtremolo	*	*Xtremolo	*	*	*	*	*	*Xtremolo	*	*tremolo	*	*Xtremolotremolo	*
16C/LL	.	.	.	.	.	.	.	.	.	.	.	16C/LL	.	16A/'LL 16a/	.	16e-/'LL 16cc#/	.	16c/LL	.	16cc\LL	.	16ff#\LL	.	16aa\LL	.
16C/JJ	.	.	.	.	.	.	.	.	.	.	.	16C/JJ	.	16A/'JJ 16a/	.	16e-/'JJ 16cc#/	.	16c/JJ	.	16cc\JJ	.	16ff#\JJ	.	16aa\JJ	.
*tremolo	*	*	*	*	*	*	*	*	*	*	*	*tremolo	*	*tremolo	*	*	*	*	*	*tremolo	*	*	*	*tremolo	*
8C/L	.	.	.	.	.	.	.	.	.	.	.	8C/'L	.	8A/'L 8a/	.	8e-/'L 8cc#/	.	8c/'L	.	8cc\'L	.	8ff#\L	.	8aa\L	.
8C/	.	.	.	.	.	.	.	.	.	.	.	8C/'	.	8A/' 8a/	.	8e-/' 8cc#/	.	8c/'	.	8cc\'	.	8ff#\	.	8aa\	.
8C/	.	.	.	.	.	.	.	.	.	.	.	8C/'	.	8A/' 8a/	.	8e-/' 8cc#/	.	8c/'	.	8cc\'	.	8ff#\	.	8aa\	.
8C/J	.	.	.	.	.	.	.	.	.	.	.	8C/'J	.	8A/'J 8a/	.	8e-/'J 8cc#/	.	8c/'J	.	8cc\'J	.	8ff#\J	.	8aa\J	.
=20	=20	=20	=20	=20	=20	=20	=20	=20	=20	=20	=20	=20	=20	=20	=20	=20	=20	=20	=20	=20	=20	=20	=20	=20	=20
!	!	!	!	!	!	!	!	!	!	!	!	!	!	!	!	!	!	!LO:PB:g=original	!	!LO:PB:g=original	!	!	!	!	!
4C/	7n 5# 4 2	.	1r	.	.	1r	.	.	1r	.	.	4C/	.	4g#X\^^ 4bn\	.	4dd\^^ 4ff\	.	4c/	.	4cc\	.	4ff\	.	4bb\	.
8r	.	.	.	.	.	.	.	.	.	.	.	8r	.	8r	.	8r	.	8r	.	8r	.	8r	.	8r	.
*Xtremolo	*	*	*	*	*	*	*	*	*	*	*	*Xtremolo	*	*Xtremolo	*	*Xtremolo	*	*	*	*Xtremolo	*	*Xtremolo	*	*tremolo	*
16C/LL	.	.	.	.	.	.	.	.	.	.	.	16C/LL	.	16g#\'LL 16b\	.	16dd\'LL 16ff\	.	16c/LL	.	16cc\LL	.	16ff\LL	.	16bb\LL	.
16C/JJ	.	.	.	.	.	.	.	.	.	.	.	16C/JJ	.	16g#/'JJ 16b/	.	16dd\'JJ 16ff\	.	16c/JJ	.	16cc\JJ	.	16ff\JJ	.	16bb\JJ	.
*tremolo	*	*	*	*	*	*	*	*	*	*	*	*tremolo	*	*tremolo	*	*tremolo	*	*	*	*tremolo	*	*tremolo	*	*tremolo	*
8C/L	.	.	.	.	.	.	.	.	.	.	.	8C/'L	.	8g#\'L 8b\	.	8dd\'L 8ff\	.	8c/'L	.	8cc\'L	.	8ff\L	.	8bb\L	.
8C/	.	.	.	.	.	.	.	.	.	.	.	8C/'	.	8g#/' 8b/	.	8dd\' 8ff\	.	8c/'	.	8cc\'	.	8ff\	.	8bb\	.
8C/	.	.	.	.	.	.	.	.	.	.	.	8C/'	.	8g#/' 8b/	.	8dd\' 8ff\	.	8c/'	.	8cc\'	.	8ff\	.	8bb\	.
8C/J	.	.	.	.	.	.	.	.	.	.	.	8C/'J	.	8g#\'J 8b\	.	8dd\'J 8ff\	.	8c/'J	.	8cc\'J	.	8ff\J	.	8bb\J	.
.	.	.	.	.	.	.	.	.	.	.	.	.	.	.	.	.	.	.	.	.	.	.	.	.	.
=21	=21	=21	=21	=21	=21	=21	=21	=21	=21	=21	=21	=21	=21	=21	=21	=21	=21	=21	=21	=21	=21	=21	=21	=21	=21
!	!	!	!	!	!	!	!	!	!	!	!	!	!	!	!	!LO:PB:g=original	!	!	!	!	!	!	!	!	!
4C/	3	.	1r	.	.	1r	.	.	1r	.	.	4C/	.	4gn/	.	4cc\ 4een\	.	4c/	.	4cc\	.	4ee\	.	4ccc\	.
4C/	.	.	.	.	.	.	.	.	.	.	.	4C/	.	4G/ 4g/	.	4e/ 4cc/	.	4c/	.	4cc\	.	4r	.	4r	.
4C/	.	.	.	.	.	.	.	.	.	.	.	4C/	.	4G/ 4g/	.	4e/ 4cc/	.	4c/	.	4cc\	.	2r	.	8r	.
.	.	.	.	.	.	.	.	.	.	.	.	.	.	.	.	.	.	.	.	.	.	.	.	(>8cc\L	.
4r	.	.	.	.	.	.	.	.	.	.	.	4r	.	4r	.	4r	.	4r	.	4r	.	.	.	8aa\	.
.	.	.	.	.	.	.	.	.	.	.	.	.	.	.	p	.	.	.	.	.	.	.	.	8gg\J)	.
=22	=22	=22	=22	=22	=22	=22	=22	=22	=22	=22	=22	=22	=22	=22	=22	=22	=22	=22	=22	=22	=22	=22	=22	=22	=22
!LO:PB:g=original	!	!	!	!	!	!	!	!	!	!	!	!	!	!LO:PB:g=original	!	!LO:TX:b:i:t=dolce	!	!	!	!	!	!	!	!	!
4F\	5	.	4F\	Im-	.	4a/	Im-	.	4ff\	Im-	.	1r	.	(8f/L 8a/	.	(>8cc\L	.	1r	.	1r	.	4a/	.	4ff\	.
.	.	.	.	.	.	.	.	.	.	.	.	.	.	8c/	.	8ff\	.	.	.	.	.	.	.	.	.
4r	.	.	8F\	-ple	.	8a/	-ple	.	8cc\	-ple	.	.	.	8f/ 8a/	.	8aa\	.	.	.	.	.	4r	.	4r	.
.	.	.	8F\	su-	.	8a/	su-	.	8cc\	su-	.	.	.	8c/J	.	8ccc\J)	.	.	.	.	.	.	.	.	.
.	.	.	.	.	.	.	.	.	.	.	.	.	.	.	.	.	p	.	.	.	.	.	.	.	.
4F\	.	.	4F\	-per-	.	4a/	-per-	.	4cc\	-per-	.	.	.	8f/L 8a/	.	4fff\	.	.	.	.	.	4a/	.	4cc\	.
.	.	.	.	.	.	.	.	.	.	.	.	.	.	8c/	.	.	.	.	.	.	.	.	.	.	.
4r	.	.	4F\	-na	.	8g/L	-na	.	8b-XL\	-na	.	.	.	8f/ 8a/	.	4aa\T	.	.	.	.	.	8g/L	.	8b-XL\	.
.	.	.	.	.	.	8f/J	.	.	8a/J	.	.	.	.	8c/J)	.	.	.	.	.	.	.	8f/J	.	8a/J	.
=23	=23	=23	=23	=23	=23	=23	=23	=23	=23	=23	=23	=23	=23	=23	=23	=23	=23	=23	=23	=23	=23	=23	=23	=23	=23
4C/	7-	.	8.C/	gra-	.	8.g/	gra-	.	8.b-X\	gra-	.	1r	.	4G/ 4e/	.	8.bb-X\L	.	1r	.	1r	.	4g/	.	4b-X\	.
.	.	.	16C/	-ti-	.	16f#X/	-ti-	.	16a/	-ti-	.	.	.	.	.	16aa\Jk	.	.	.	.	.	.	.	.	.
4C/	.	.	4C/	-a	.	4g/	-a	.	4b-\	-a	.	.	.	16gg\LL	p	(>16bb-\LL	.	.	.	.	.	4r	.	4r	.
.	.	.	.	.	.	.	.	.	.	.	.	.	.	16ff\	.	16aa\	.	.	.	.	.	.	.	.	.
.	.	.	.	.	.	.	.	.	.	.	.	.	.	16ee\	.	16gg\	.	.	.	.	.	.	.	.	.
!	!	!	!	!	!	!	!	!	!	!	!	!	!	!LO:SIC:v= niejednoznaczy początek i koniec łuku	!	!	!	!	!	!	!	!	!	!	!
.	.	.	.	.	.	.	.	.	.	.	.	.	.	(>16dd\JJ	.	16ff\JJ	.	.	.	.	.	.	.	.	.
!	!	!	!LO:TX:a:t=P: w źródle dodatkowa pauza ćwierćnutowa:problem	!	!	!	!	!	!	!	!	!	!	!	!	!	!	!	!	!	!	!	!	!	!
4C/	.	.	4r	.	.	2r	.	.	2r	.	.	.	.	16cc\LL	.	16ee\LL	.	.	.	.	.	4g/	.	4ee\	.
.	.	.	.	.	.	.	.	.	.	.	.	.	.	16dd\	.	16ff\	.	.	.	.	.	.	.	.	.
.	.	.	.	.	.	.	.	.	.	.	.	.	.	16ee\	.	16gg\	.	.	.	.	.	.	.	.	.
.	.	.	.	.	.	.	.	.	.	.	.	.	.	16ff\JJ	.	16aa\JJ	.	.	.	.	.	.	.	.	.
!	!	!	!LO:N:vis=2	!	!	!	!	!	!	!	!	!	!	!	!	!	!	!	!	!	!	!	!	!	!
4r	.	.	4r	.	.	.	.	.	.	.	.	.	.	16gg\LL)	.	16bb-\LL	.	.	.	.	.	4b-X/	.	4gg\	.
!	!	!	!	!	!	!	!	!	!	!	!	!	!	!	!	!LO:SIC:v= nieprecyzyjny koniec łuku	!	!	!	!	!	!	!	!	!
.	.	.	.	.	.	.	.	.	.	.	.	.	.	16ff#X\	.	16aa\)	.	.	.	.	.	.	.	.	.
.	.	.	.	.	.	.	.	.	.	.	.	.	.	16gg\	.	16bb-\	.	.	.	.	.	.	.	.	.
.	.	.	.	.	.	.	.	.	.	.	.	.	.	16ee\JJ	.	16gg\JJ	.	.	.	.	.	.	.	.	.
=24	=24	=24	=24	=24	=24	=24	=24	=24	=24	=24	=24	=24	=24	=24	=24	=24	=24	=24	=24	=24	=24	=24	=24	=24	=24
!	!	!	!	!	!	!	!	!	!LO:PB:g=original	!	!	!	!	!LO:SIC:v= niejednoznaczy początek i koniec łuku	!	!	!	!	!	!	!	!	!	!	!
4F\	5	.	4F\	Im-	.	4a/	Im-	.	4ff\	Im-	.	1r	.	(>8a/L	.	8ff\L	.	1r	.	1r	.	4a/	.	4ff\	.
.	.	.	.	.	.	.	.	.	.	.	.	.	.	8cc\	.	8ff\'	.	.	.	.	.	.	.	.	.
4r	.	.	8F\	-ple	.	8a/	-ple	.	8cc\	-ple	.	.	.	8a/	.	8aa\'	.	.	.	.	.	4r	.	4r	.
.	.	.	8F\	su-	.	8a/	su-	.	8cc\	su-	.	.	.	8cc\J	.	8ccc\'J	.	.	.	.	.	.	.	.	.
4F\	.	.	4F\	-per-	.	4a/	-per-	.	4cc\	-per-	.	.	.	8a/L)	.	4fff\	.	.	.	.	.	4aa\	.	4ccc\	.
.	.	.	.	.	.	.	.	.	.	.	.	.	.	8cc\	.	.	.	.	.	.	.	.	.	.	.
4r	.	.	4F\	-na	.	8g/L	.	.	8b-XL\	-na	.	.	.	8a/	.	4aa\T	.	.	.	.	.	8gg\L	.	8bb-X\L	.
.	.	.	.	.	.	8f/J	-na	.	8aJ\	.	.	.	.	8cc\J	.	.	.	.	.	.	.	8ff\J	.	8aa\J	.
=25	=25	=25	=25	=25	=25	=25	=25	=25	=25	=25	=25	=25	=25	=25	=25	=25	=25	=25	=25	=25	=25	=25	=25	=25	=25
!	!	!	!	!	!	!LO:PB:g=original	!	!	!	!	!	!	!	!	!	!LO:PB:g=original	!	!	!	!	!	!	!	!	!
4C/	7-	.	8.C/	gra-	.	8.g/	gra-	.	8.b-X\	gra-	.	1r	.	8g/L	.	8.bb-X\L	.	1r	.	1r	.	4gg\	.	4bb\	.
.	.	.	.	.	.	.	.	.	.	.	.	.	.	8cc\J	.	.	.	.	.	.	.	.	.	.	.
.	.	.	16C/	-ti-	.	16f#X/	-ti-	.	16a\	-ti-	.	.	.	.	.	16aa\Jk	.	.	.	.	.	.	.	.	.
4C/	.	.	4C/	-a,	.	4g/	-a	.	4b-\	-a	.	.	.	16gg\LL	.	16bb-\LL	.	.	.	.	.	4r	.	4r	.
.	.	.	.	.	.	.	.	.	.	.	.	.	.	16ff\	.	16aa\	.	.	.	.	.	.	.	.	.
!	!	!	!	!	!	!	!	!	!	!	!	!	!	!LO:TX:a:t=problem: niejednoznaczy początek i koniec łuku	!	!	!	!	!	!	!	!	!	!	!
.	.	.	.	.	.	.	.	.	.	.	.	.	.	(>16ee\	.	16gg\	.	.	.	.	.	.	.	.	.
.	.	.	.	.	.	.	.	.	.	.	.	.	.	16dd\JJ	.	16ff\JJ	.	.	.	.	.	.	.	.	.
4C/	.	.	2r	.	.	2r	.	.	2r	.	.	.	.	16cc\LL	.	(>16ee\LL	.	.	.	.	.	4g/	.	4ee\	.
.	.	.	.	.	.	.	.	.	.	.	.	.	.	16dd\	.	16ff\	.	.	.	.	.	.	.	.	.
.	.	.	.	.	.	.	.	.	.	.	.	.	.	16ee\	.	16gg\	.	.	.	.	.	.	.	.	.
.	.	.	.	.	.	.	.	.	.	.	.	.	.	16ff\JJ	.	16aa\JJ	.	.	.	.	.	.	.	.	.
4r	.	.	.	.	.	.	.	.	.	.	.	.	.	16gg\LL)	.	16bb-\LL	.	.	.	.	.	4b-X/	.	4gg\	.
.	.	.	.	.	.	.	.	.	.	.	.	.	.	16ff#X\	.	16aa\	.	.	.	.	.	.	.	.	.
.	.	.	.	.	.	.	.	.	.	.	.	.	.	16gg\	.	16bb-\	.	.	.	.	.	.	.	.	.
.	.	.	.	.	.	.	.	.	.	.	.	.	.	16ee\JJ)	.	16gg\JJ)	.	.	.	.	.	.	.	.	.
=26	=26	=26	=26	=26	=26	=26	=26	=26	=26	=26	=26	=26	=26	=26	=26	=26	=26	=26	=26	=26	=26	=26	=26	=26	=26
!LO:TX:a:t=Violon Solo	!	!	!LO:PB:g=original	!	!	!	!	!	!	!	!	!	!	!	!	!	!	!	!	!	!	!	!LO:PB:g=original	!	!LO:PB:g=original
*	*	*	*	*	*	*	*	*	*	*	*	*	*	*	*	*^	*	*	*	*	*	*	*	*	*
4FF/	.	.	1r	.	.	1r	.	.	1r	.	.	1r	.	4fn/ 4a/	.	4ryy	4a\ 4ff\	.	1r	.	1r	.	4a/	.	4ff\	.
4AA/	.	.	.	.	.	.	.	.	.	.	.	.	.	4r	.	4r	4A\	.	.	.	.	.	4r	.	4r	.
4.D\	.	.	.	.	.	.	.	.	.	.	.	.	.	2r	.	2r	4.d\	.	.	.	.	.	2r	.	2r	.
8C/	.	.	.	.	.	.	.	.	.	.	.	.	.	.	.	.	8c\	.	.	.	.	.	.	.	.	.
.	.	.	.	.	.	.	.	.	.	.	.	.	.	.	.	.	.	f	.	.	.	.	.	.	.	.
*	*	*	*	*	*	*	*	*	*	*	*	*	*	*	*	*v	*v	*	*	*	*	*	*	*	*	*
=27	=27	=27	=27	=27	=27	=27	=27	=27	=27	=27	=27	=27	=27	=27	=27	=27	=27	=27	=27	=27	=27	=27	=27	=27	=27
!LO:PB:g=original	!	!LO:DY:rj	!	!	!	!	!	!	!	!	!	!	!	!	!	!	!	!	!	!	!	!	!	!LO:SIC:v= h zamiast b (w całym takcie)	!
!	!	!	!	!	!	!	!	!	!LO:TX:t=P:powtórzony tekst:problem	!	!	!	!	!	!LO:DY:rj	!	!	!	!	!	!	!	!	!	!
*	*	*	*	*	*	*	*	*	*	*	*	*	*	*	*	*	*	*	*	*	*	*Xtremolo	*	*Xtremolo	*
8C/L	7-	f	4G\	Im-	.	4b-X\	Im-	.	4ee\	{Im-	.	4C/	.	16G/LL 16e/	f	16cc\LL 16bb-X\	.	8c/L	.	8cc\L	.	4gg\	.	4bb\	.
.	.	.	.	.	.	.	.	.	.	.	.	.	.	16G/ 16e/	.	16cc\ 16bb-\	.	.	.	.	.	.	.	.	.
8C/	.	.	.	.	.	.	.	.	.	.	.	.	.	16G/ 16e/	.	16cc\ 16bb-\	.	16c/L	.	16cc\L	.	.	.	.	.
.	.	.	.	.	.	.	.	.	.	.	.	.	.	16G/ 16e/	.	16cc\ 16bb-\	.	16c/JJ	.	16cc\JJ	.	.	.	.	.
!	!	!	!	!	!	!	!	!	!	!	!	!	!	!	!	!	!	!	!	!	!	!LO:N:vis=16	!	!	!
*	*	*	*	*	*	*	*	*	*	*	*	*Xtremolo	*	*	*	*	*	*Xtremolo	*	*Xtremolo	*	*	*	*	*
8C/	.	.	8G\	-ple	.	8b-\	-ple	.	8ee\	-ple	.	8C/L	.	16G/ 16e/	.	16cc\ 16bb-\	.	8c/L	.	8cc\L	.	8gg\L	.	8bb\L	.
.	.	.	.	.	.	.	.	.	.	.	.	.	.	16G/ 16e/	.	16cc\ 16bb-\	.	.	.	.	.	.	.	.	.
!	!	!	!	!	!	!	!	!	!	!	!	!	!	!	!	!	!	!	!	!	!	!LO:N:vis=16	!	!	!
8C/J	.	.	8G\	su-	.	8b-\	su-	.	8cc\	su-	.	8C/J	.	16G/ 16e/	.	16cc\ 16bb-\	.	8c/J	.	8cc\J	.	8gg\J	.	8bb\J	.
.	.	.	.	.	.	.	.	.	.	.	.	.	.	16G/JJ 16e/	.	16cc\JJ 16bb-\	.	.	.	.	.	.	.	.	.
*	*	*	*	*	*	*	*	*	*	*	*	*	*	*	*	*	*	*tremolo	*	*tremolo	*	*	*	*	*
8C/L	.	.	4G\	-per-	.	4b-\	-per-	.	4dd\	-per-	.	8C/L	.	16G/LL 16e/	.	16cc\LL 16bb-\	.	8c/'L	.	8cc\'L	.	4gg\	.	4bb\	.
.	.	.	.	.	.	.	.	.	.	.	.	.	.	16G/ 16e/	.	16cc\ 16bb-\	.	.	.	.	.	.	.	.	.
8C/	.	.	.	.	.	.	.	.	.	.	.	8C/J	.	16G/ 16e/	.	16cc\ 16bb-\	.	8c/'	.	8cc\'	.	.	.	.	.
.	.	.	.	.	.	.	.	.	.	.	.	.	.	16G/ 16e/	.	16cc\ 16bb-\	.	.	.	.	.	.	.	.	.
8C/	.	.	4G\	-na	.	4b-\	-na	.	4ee\	-na	.	4C/	.	16G/ 16e/	.	16cc\ 16bb-\	.	8c/'	.	8cc\'	.	4gg\	.	4bb\	.
.	.	.	.	.	.	.	.	.	.	.	.	.	.	16G/ 16e/	.	16cc\ 16bb-\	.	.	.	.	.	.	.	.	.
8C/J	.	.	.	.	.	.	.	.	.	.	.	.	.	16G/ 16e/	.	16cc\ 16bb-\	.	8c/'J	.	8cc\'J	.	.	.	.	.
.	.	.	.	.	.	.	.	.	.	.	.	.	.	16G/JJ 16e/	.	16cc\JJ 16bb-\	.	.	.	.	.	.	.	.	.
=28	=28	=28	=28	=28	=28	=28	=28	=28	=28	=28	=28	=28	=28	=28	=28	=28	=28	=28	=28	=28	=28	=28	=28	=28	=28
!	!	!	!	!	!	!	!	!	!	!	!	!	!	!LO:PB:g=original	!	!	!	!	!	!	!	!	!	!	!
8C/L	4	.	8.F\	gra-	.	8.a/	gra-	.	8.ff\	gra-	.	4C/	.	16f/LL 16a/	.	16cc\LL 16aa\	.	4c/	.	4cc\	.	8.ff\	.	8.aa\	.
.	.	.	.	.	.	.	.	.	.	.	.	.	.	16f/ 16a/	.	16cc\ 16aa\	.	.	.	.	.	.	.	.	.
8C/	.	.	.	.	.	.	.	.	.	.	.	.	.	16f/ 16a/	.	16cc\ 16aa\	.	.	.	.	.	.	.	.	.
.	.	.	16F\	-ti-	.	16a/	-ti-	.	16cc\	-ti-	.	.	.	16f/ 16a/	.	16cc\ 16aa\	.	.	.	.	.	16ff\	.	16aa\	.
8C/	.	.	4F\	-a	.	4a/	-a	.	4cc\	-a}	.	4C/	.	16f/ 16a/	.	16cc\ 16aa\	.	4c/	.	4cc\	.	4ff\	.	4aa\	.
.	.	.	.	.	.	.	.	.	.	.	.	.	.	16f/ 16a/	.	16cc\ 16aa\	.	.	.	.	.	.	.	.	.
8C/J	.	.	.	.	.	.	.	.	.	.	.	.	.	16f/ 16a/	.	16cc\ 16aa\	.	.	.	.	.	.	.	.	.
.	.	.	.	.	.	.	.	.	.	.	.	.	.	16f/JJ 16a/	.	16cc\JJ 16aa\	.	.	.	.	.	.	.	.	.
8C/L	.	.	2r	.	.	2r	.	.	2r	.	.	2r	.	16f/LL 16a/	.	16cc\LL 16aa\	.	2r	.	2r	.	4r	.	4r	.
.	.	.	.	.	.	.	.	.	.	.	.	.	.	16f/ 16a/	.	16cc\ 16aa\	.	.	.	.	.	.	.	.	.
8C/	.	.	.	.	.	.	.	.	.	.	.	.	.	16f/ 16a/	.	16cc\ 16aa\	.	.	.	.	.	.	.	.	.
.	.	.	.	.	.	.	.	.	.	.	.	.	.	16f/ 16a/	.	16cc\ 16aa\	.	.	.	.	.	.	.	.	.
8C/	.	.	.	.	.	.	.	.	.	.	.	.	.	16f/ 16a/	.	16cc\ 16aa\	.	.	.	.	.	4r	.	4r	.
.	.	.	.	.	.	.	.	.	.	.	.	.	.	16f/ 16a/	.	16cc\ 16aa\	.	.	.	.	.	.	.	.	.
8C/J	.	.	.	.	.	.	.	.	.	.	.	.	.	16f/ 16a/	.	16cc\ 16aa\	.	.	.	.	.	.	.	.	.
.	.	.	.	.	.	.	.	.	.	.	.	.	.	16f/JJ 16a/	.	16cc\JJ 16aa\	.	.	.	.	.	.	.	.	.
=29	=29	=29	=29	=29	=29	=29	=29	=29	=29	=29	=29	=29	=29	=29	=29	=29	=29	=29	=29	=29	=29	=29	=29	=29	=29
8C#X/L	9 5	.	4G\	{Im-	.	4a/	{Im-	.	4cc#X\	Im-	.	1r	.	16eLL\ 16cc#X\	.	16a\LL 16gg\	.	1r	.	1r	.	4ee\	.	4gg\	.
.	.	.	.	.	.	.	.	.	.	.	.	.	.	16e/ 16cc#/	.	16a\ 16gg\	.	.	.	.	.	.	.	.	.
8C#/	.	.	.	.	.	.	.	.	.	.	.	.	.	16e/ 16cc#/	.	16a\ 16gg\	.	.	.	.	.	.	.	.	.
.	.	.	.	.	.	.	.	.	.	.	.	.	.	16e/ 16cc#/	.	16a\ 16gg\	.	.	.	.	.	.	.	.	.
8C#/	.	.	8G\	-ple	.	8a/	-ple	.	8cc#\	-ple	.	.	.	16e/ 16cc#/	.	16a\ 16gg\	.	.	.	.	.	4cc#X\	.	4ee\	.
.	.	.	.	.	.	.	.	.	.	.	.	.	.	16e/ 16cc#/	.	16a\ 16gg\	.	.	.	.	.	.	.	.	.
8C#/J	.	.	8G\	su-	.	8a/	su-	.	8cc#\	su-	.	.	.	16e/ 16cc#/	.	16a\ 16gg\	.	.	.	.	.	.	.	.	.
.	.	.	.	.	.	.	.	.	.	.	.	.	.	16e/JJ 16cc#/	.	16a\JJ 16gg\	.	.	.	.	.	.	.	.	.
8C#/L	.	.	4G\	-per-	.	4a/	-per-	.	4cc#\	-per-	.	.	.	16eLL\ 16cc#\	.	16a\LL 16gg\	.	.	.	.	.	4cc#\	.	4ee\	.
.	.	.	.	.	.	.	.	.	.	.	.	.	.	16e/ 16cc#/	.	16a\ 16gg\	.	.	.	.	.	.	.	.	.
8C#/	.	.	.	.	.	.	.	.	.	.	.	.	.	16e/ 16cc#/	.	16a\ 16gg\	.	.	.	.	.	.	.	.	.
.	.	.	.	.	.	.	.	.	.	.	.	.	.	16e/ 16cc#/	.	16a\ 16gg\	.	.	.	.	.	.	.	.	.
8C#/	.	.	4G\	-na	.	4a/	-na	.	4cc#\	-na	.	.	.	16e/ 16cc#/	.	16a\ 16gg\	.	.	.	.	.	4cc#\	.	4ee\	.
.	.	.	.	.	.	.	.	.	.	.	.	.	.	16e/ 16cc#/	.	16a\ 16gg\	.	.	.	.	.	.	.	.	.
8C#/J	.	.	.	.	.	.	.	.	.	.	.	.	.	16e/ 16cc#/	.	16a\ 16gg\	.	.	.	.	.	.	.	.	.
.	.	.	.	.	.	.	.	.	.	.	.	.	.	16e/JJ 16cc#/	.	16a\JJ 16gg\	.	.	.	.	.	.	.	.	.
=30	=30	=30	=30	=30	=30	=30	=30	=30	=30	=30	=30	=30	=30	=30	=30	=30	=30	=30	=30	=30	=30	=30	=30	=30	=30
8D\L	n	.	8.F\	gra-	.	8.a/	gra-	.	8.dd\	gra-	.	1r	.	16dd\LL	.	16a\LL 16ff\	.	1r	.	1r	.	4dd\	.	4ff\	.
.	.	.	.	.	.	.	.	.	.	.	.	.	.	16dd\	.	16a\ 16ff\	.	.	.	.	.	.	.	.	.
8D\	.	.	.	.	.	.	.	.	.	.	.	.	.	16dd\	.	16a\ 16ff\	.	.	.	.	.	.	.	.	.
.	.	.	16F\	-ti-	.	16a/	-ti-	.	16dd\	-ti-	.	.	.	16dd\	.	16a\ 16ff\	.	.	.	.	.	.	.	.	.
8D\	.	.	4F\	-a}	.	4a/	-a}	.	4dd\	-a	.	.	.	16dd\	.	16a\ 16ff\	.	.	.	.	.	4r	.	4r	.
.	.	.	.	.	.	.	.	.	.	.	.	.	.	16dd\	.	16a\ 16ff\	.	.	.	.	.	.	.	.	.
8D\J	.	.	.	.	.	.	.	.	.	.	.	.	.	16dd\	.	16a\ 16ff\	.	.	.	.	.	.	.	.	.
.	.	.	.	.	.	.	.	.	.	.	.	.	.	16dd\JJ	.	16a\JJ 16ff\	.	.	.	.	.	.	.	.	.
8D\L	7 #	.	2r	.	.	2r	.	.	2r	.	.	.	.	16d/LL 16ccn/	.	16a\LL 16ff#X\	.	.	.	.	.	2cc\	.	2ff#X\	.
.	.	.	.	.	.	.	.	.	.	.	.	.	.	16d/ 16cc/	.	16a\ 16ff#\	.	.	.	.	.	.	.	.	.
8D\	.	.	.	.	.	.	.	.	.	.	.	.	.	16d/ 16cc/	.	16a\ 16ff#\	.	.	.	.	.	.	.	.	.
.	.	.	.	.	.	.	.	.	.	.	.	.	.	16d/ 16cc/	.	16a\ 16ff#\	.	.	.	.	.	.	.	.	.
8D\	.	.	.	.	.	.	.	.	.	.	.	.	.	16d/ 16cc/	.	16a\ 16ff#\	.	.	.	.	.	.	.	.	.
.	.	.	.	.	.	.	.	.	.	.	.	.	.	16d/ 16cc/	.	16a\ 16ff#\	.	.	.	.	.	.	.	.	.
8D\J	.	.	.	.	.	.	.	.	.	.	.	.	.	16d/ 16cc/	.	16a\ 16ff#\	.	.	.	.	.	.	.	.	.
.	.	.	.	.	.	.	.	.	.	.	.	.	.	16d/JJ 16cc/	.	16a\JJ 16ff#\	.	.	.	.	.	.	.	.	.
=31	=31	=31	=31	=31	=31	=31	=31	=31	=31	=31	=31	=31	=31	=31	=31	=31	=31	=31	=31	=31	=31	=31	=31	=31	=31
!	!	!	!	!	!	!	!	!	!LO:PB:g=original	!	!	!	!	!	!	!LO:LB:g=original	!	!	!	!	!	!	!	!	!
!	!	!	!	!	!	!	!	!	!	!	!	!	!	!	!	!LO:TX:t=P:mixed beam:problem	!	!	!	!	!	!	!	!	!
4G\	n	.	1r	.	.	1r	.	.	1r	.	.	4GG/	.	8d/ 8b/	.	8gg\`L	.	4g/	.	4dd\	.	4b\	.	4gg\	.
.	.	.	.	.	.	.	.	.	.	.	.	.	.	8r	.	16g/L	.	.	.	.	.	.	.	.	.
.	.	.	.	.	.	.	.	.	.	.	.	.	.	.	.	16a/JJ	.	.	.	.	.	.	.	.	.
4r	.	.	.	.	.	.	.	.	.	.	.	4r	.	4r	.	(>16b\LL	.	4r	.	4r	.	4r	.	4r	.
.	.	.	.	.	.	.	.	.	.	.	.	.	.	.	.	16cc\	.	.	.	.	.	.	.	.	.
.	.	.	.	.	.	.	.	.	.	.	.	.	.	.	.	16dd\	.	.	.	.	.	.	.	.	.
.	.	.	.	.	.	.	.	.	.	.	.	.	.	.	.	16ee\JJ)	.	.	.	.	.	.	.	.	.
!	!	!	!	!	!	!	!	!	!	!	!	!	!	!	!	!LO:TX:t=P:mixed beam:problem	!	!	!	!	!	!	!	!	!
4G\	.	.	.	.	.	.	.	.	.	.	.	4GG/	.	8d/ 8b/	.	8ff\`L	.	4g/	.	4dd\	.	4dd\	.	4ffn\	.
.	.	.	.	.	.	.	.	.	.	.	.	.	.	8r	.	16g/L	.	.	.	.	.	.	.	.	.
.	.	.	.	.	.	.	.	.	.	.	.	.	.	.	.	16a/JJ	.	.	.	.	.	.	.	.	.
4r	.	.	.	.	.	.	.	.	.	.	.	4r	.	4r	.	(>16b\LL	.	4r	.	4r	.	4r	.	4r	.
.	.	.	.	.	.	.	.	.	.	.	.	.	.	.	.	16cc\	.	.	.	.	.	.	.	.	.
.	.	.	.	.	.	.	.	.	.	.	.	.	.	.	.	16dd\	.	.	.	.	.	.	.	.	.
.	.	.	.	.	.	.	.	.	.	.	.	.	.	.	.	16ee\JJ)	.	.	.	.	.	.	.	.	.
=32	=32	=32	=32	=32	=32	=32	=32	=32	=32	=32	=32	=32	=32	=32	=32	=32	=32	=32	=32	=32	=32	=32	=32	=32	=32
!	!	!	!	!	!	!	!	!	!	!	!	!LO:PB:g=original	!	!	!	!	!	!	!	!	!	!	!	!	!
*Xtremolo	*	*	*	*	*	*	*	*	*	*	*	*	*	*Xtremolo	*	*	*	*Xtremolo	*	*Xtremolo	*	*	*	*	*
8G\L	7	.	1r	.	.	1r	.	.	1r	.	.	4GG/	.	8g'L\ 8b\	.	8ff\`L	.	8g/L	.	8dd\L	.	8dd\'L	.	8ff\'L	.
8G\	6 4#	.	.	.	.	.	.	.	.	.	.	.	.	8g/' 8b-X/	.	8cc#X\` 8ee\	.	8r	.	8r	.	8cc#X\'	.	8ee\'	.
8G\	7	.	.	.	.	.	.	.	.	.	.	4r	.	8g/' 8bn/	.	8dd\` 8ff\	.	8g/J	.	8dd\J	.	8dd\'	.	8ff\'	.
8G\J	6 4#	.	.	.	.	.	.	.	.	.	.	.	.	8g/'J 8b-X/	.	8cc#\`J 8ee\	.	8r	.	8r	.	8cc#\'J	.	8ee\'J	.
*	*	*	*	*	*	*	*	*	*	*	*	*	*	*	*	*Xtremolo	*	*	*	*	*	*	*	*	*
8G\L	7	.	.	.	.	.	.	.	.	.	.	4GG/	.	8g'L\ 8bn\	.	8dd\`L 8ff\	.	8g/L	.	8dd\L	.	8dd\'L	.	8ff\'L	.
8G\	6 4#	.	.	.	.	.	.	.	.	.	.	.	.	8g/' 8b-X/	.	8cc#\` 8ee\	.	8r	.	8r	.	8cc#\'	.	8ee\'	.
8G\	7	.	.	.	.	.	.	.	.	.	.	4r	.	8g/' 8bn/	.	8dd\` 8ff\	.	8g/J	.	8dd\J	.	8dd\'	.	8ff\'	.
8G\J	6 4#	.	.	.	.	.	.	.	.	.	.	.	.	8g/'J 8b-X/	.	8cc#\`J 8ee\	.	8r	.	8r	.	8cc#\'J	.	8ee\'J	.
=33	=33	=33	=33	=33	=33	=33	=33	=33	=33	=33	=33	=33	=33	=33	=33	=33	=33	=33	=33	=33	=33	=33	=33	=33	=33
!LO:PB:g=original	!	!	!	!	!	!	!	!	!	!	!	!	!	!	!	!	!	!	!	!	!	!	!	!	!
2GG\ 2G\	7	.	1r	.	.	1r	.	.	1r	.	.	4GG/	.	2g\ 2bn\	.	2dd\ 2ff\	.	2g/	.	2dd\	.	2dd\	.	2ff\	.
.	.	.	.	.	.	.	.	.	.	.	.	4r	.	.	.	.	.	.	.	.	.	.	.	.	.
2r	.	.	.	.	.	.	.	.	.	.	.	2r	.	2r	.	16r	.	2r	.	2r	.	2r	.	2r	.
.	.	.	.	.	.	.	.	.	.	.	.	.	.	.	.	(>16gg#X\LL	.	.	.	.	.	.	.	.	.
.	.	.	.	.	.	.	.	.	.	.	.	.	.	.	.	16aa\)	.	.	.	.	.	.	.	.	.
.	.	.	.	.	.	.	.	.	.	.	.	.	.	.	.	(>16ee\JJ	.	.	.	.	.	.	.	.	.
.	.	.	.	.	.	.	.	.	.	.	.	.	.	.	.	16ff\LL)	.	.	.	.	.	.	.	.	.
.	.	.	.	.	.	.	.	.	.	.	.	.	.	.	.	(>16dd\	.	.	.	.	.	.	.	.	.
!	!	!	!	!	!	!	!	!	!	!	!	!	!	!	!	!LO:SIC:v= g zamiast g#	!	!	!	!	!	!	!	!	!
.	.	.	.	.	.	.	.	.	.	.	.	.	.	.	.	16gg#\)	.	.	.	.	.	.	.	.	.
.	.	.	.	.	.	.	.	.	.	.	.	.	.	.	.	16b\'JJ	.	.	.	.	.	.	.	.	.
.	.	p	.	.	.	.	.	.	.	.	.	.	.	.	.	.	p	.	.	.	p	.	.	.	.
=34	=34	=34	=34	=34	=34	=34	=34	=34	=34	=34	=34	=34	=34	=34	=34	=34	=34	=34	=34	=34	=34	=34	=34	=34	=34
!	!	!	!	!	!	!	!	!	!	!	!	!	!	!LO:LB:g=original	!	!	!	!LO:TX:a:t=Cornu	!	!LO:TX:a:t=Cornu	!	!	!	!	!
4C/	.	.	4C/	Im-	.	4e/	Im-	.	4g/	Im-	.	1r	.	4e/	.	8g/L	.	2r	p	2r	.	4r	.	4r	.
.	.	.	.	.	.	.	.	.	.	.	.	.	.	.	.	8e/	.	.	.	.	.	.	.	.	.
!	!	!	!	!	!	!	!	!	!	!	!	!	!	!	!	!LO:SIC:v= niejednoznaczy początek i zakończenie  łuku	!	!	!	!	!	!	!	!	!
4r	.	.	8C/	-ple	.	8e/	-ple	.	8e/	-ple	.	.	.	4c/	.	(<8e/	.	.	.	.	.	4r	.	8r	.
.	.	.	8C/	su-	.	8e/	su-	.	8g/	su-	.	.	.	.	.	8g/J	.	.	.	.	.	.	.	8g/	.
*	*	*	*	*	*	*	*	*	*	*	*	*	*	*	*	*tremolo	*	*	*	*	*	*	*	*	*
4C/	.	.	4C/	-per-	.	4e/	-per-	.	4ee\	-per-	.	.	.	4c/	.	8e/L)	.	8r	.	8r	.	4g/	.	4ee\	.
.	.	.	.	.	.	.	.	.	.	.	.	.	.	.	.	8g/	.	8e/L	.	8cc\L	.	.	.	.	.
4r	.	.	4C/	-na	.	4e/	-na	.	4cc\	-na	.	.	.	4c/	.	8e/	.	8e/	.	8cc\	.	4e/	.	4cc\	.
.	.	.	.	.	.	.	.	.	.	.	.	.	.	.	.	8g/J	.	8e/J	.	8cc\J	.	.	.	.	.
=35	=35	=35	=35	=35	=35	=35	=35	=35	=35	=35	=35	=35	=35	=35	=35	=35	=35	=35	=35	=35	=35	=35	=35	=35	=35
!	!	!	!	!	!	!LO:PB:g=original	!	!	!	!	!	!	!	!	!	!LO:PB:g=original	!	!LO:PB:g=original	!	!LO:PB:g=original	!	!	!	!LO:PB:g=original	!
*	*	*	*	*	*	*	*	*	*	*	*	*	*	*tremolo	*	*	*	*	*	*	*	*	*	*	*
4C/	2	.	8.D\	gra-	.	8.f/	gra-	.	8.cc\	gra-	.	1r	.	8G/L 8f/	.	(>4fff\	.	2c/	.	2cc\	.	8dd\L	.	8ff\L	.
.	.	.	.	.	.	.	.	.	.	.	.	.	.	8g/	.	.	.	.	.	.	.	8r	.	8r	.
.	.	.	16D\	-ti-	.	16f/	-ti-	.	16b\	-ti-	.	.	.	.	.	.	.	.	.	.	.	.	.	.	.
4r	.	.	4D\	-a	.	4f/	-a	.	4b\	-a	.	.	.	8G/ 8f/	.	16fff\LL)	.	.	.	.	.	8dd\J	.	8ff\	.
.	.	.	.	.	.	.	.	.	.	.	.	.	.	.	.	16eee\	.	.	.	.	.	.	.	.	.
.	.	.	.	.	.	.	.	.	.	.	.	.	.	8g/J	.	16ddd\	.	.	.	.	.	8r	.	8r	.
.	.	.	.	.	.	.	.	.	.	.	.	.	.	.	.	16ccc\JJ	.	.	.	.	.	.	.	.	.
4C/	.	.	2r	.	.	2r	.	.	2r	.	.	.	.	4G/ 4f/	.	(>16bb\LL	.	8r	.	8r	.	8dd\	.	8ff\J	.
.	.	.	.	.	.	.	.	.	.	.	.	.	.	.	.	16aa\)	.	.	.	.	.	.	.	.	.
.	.	.	.	.	.	.	.	.	.	.	.	.	.	.	.	16gg\'	.	8c/L	.	8cc\L	.	8r	.	8r	.
.	.	.	.	.	.	.	.	.	.	.	.	.	.	.	.	16ff#X\'JJ	.	.	.	.	.	.	.	.	.
4r	.	.	.	.	.	.	.	.	.	.	.	.	.	4G/ 4f/	.	(>16gg\LL	.	8c/	.	8cc\	.	4r	.	4r	.
.	.	.	.	.	.	.	.	.	.	.	.	.	.	.	.	16gg#X\	.	.	.	.	.	.	.	.	.
.	.	.	.	.	.	.	.	.	.	.	.	.	.	.	.	16aa\)	.	8c/J	.	8cc\J	.	.	.	.	.
!	!	!	!	!	!	!	!	!	!	!	!	!	!	!	!	!LO:SIC:v= f# zamiast f	!	!	!	!	!	!	!	!	!
.	.	.	.	.	.	.	.	.	.	.	.	.	.	.	.	16ff#\JJ	.	.	.	.	.	.	.	.	.
=36	=36	=36	=36	=36	=36	=36	=36	=36	=36	=36	=36	=36	=36	=36	=36	=36	=36	=36	=36	=36	=36	=36	=36	=36	=36
!	!	!	!	!	!	!	!	!	!	!LO:TX:T=P:powtórzony tekst:problem	!	!	!	!	!	!	!	!	!	!	!	!	!	!	!
4C/	3	.	4C/	Im-	.	4e/	Im-	.	4cc\	{Im-	.	1r	.	4e/	.	8ee\L	.	4c/	.	4cc\	.	4r	.	4r	.
.	.	.	.	.	.	.	.	.	.	.	.	.	.	.	.	8g/J	.	.	.	.	.	.	.	.	.
4r	.	.	8C/	-ple	.	8e/	-ple	.	8g/	-ple	.	.	.	4c/	.	8e/L	.	4r	.	4r	.	8r	.	8r	.
!	!	!	!	!	!	!	!	!	!	!	!	!	!	!	!	!LO:SIC:v= niejednoznaczny początek łuku	!	!	!	!	!	!	!	!	!
.	.	.	8C/	su-	.	8e/	su-	.	8cc\	su-	.	.	.	.	.	(&8g/J	.	.	.	.	.	8g/	.	8g/	.
4C/	.	.	4C/	-per-	.	4e/	-per-	.	4ee\	-per-	.	.	.	4c/	.	8e/L	.	8r	.	8r	.	4g/	.	4ee\	.
.	.	.	.	.	.	.	.	.	.	.	.	.	.	.	.	8g/	.	8c/L	.	8cc\L	.	.	.	.	.
4r	.	.	4C/	-na	.	4e/	-na	.	4cc\	-na	.	.	.	4c/	.	8e/)&	.	8c/	.	8cc\	.	4e/	.	4cc\	.
.	.	.	.	.	.	.	.	.	.	.	.	.	.	.	.	8g/J	.	8c/J	.	8cc\J	.	.	.	.	.
=37	=37	=37	=37	=37	=37	=37	=37	=37	=37	=37	=37	=37	=37	=37	=37	=37	=37	=37	=37	=37	=37	=37	=37	=37	=37
4C/	2	.	8.D\	gra-	.	8.f/	gra-	.	8.cc\	gra-	.	1r	.	8G/L 8f/	.	(>4fffn\	.	2c/	.	2cc\	.	8dd\L	.	8ff\L	.
.	.	.	.	.	.	.	.	.	.	.	.	.	.	8g/	.	.	.	.	.	.	.	8r	.	8r	.
.	.	.	16D\	-ti-	.	16f/	-ti-	.	16b\	-ti-	.	.	.	.	.	.	.	.	.	.	.	.	.	.	.
4r	.	.	4D\	-a,	.	4f/	-a	.	4b\	-a}	.	.	.	8G/ 8f/	.	16fff\LL)	.	.	.	.	.	8dd\J	.	8ff\J	.
.	.	.	.	.	.	.	.	.	.	.	.	.	.	.	.	16eee\	.	.	.	.	.	.	.	.	.
.	.	.	.	.	.	.	.	.	.	.	.	.	.	8g/J	.	16ddd\	.	.	.	.	.	8r	.	8r	.
.	.	.	.	.	.	.	.	.	.	.	.	.	.	.	.	16ccc\JJ	.	.	.	.	.	.	.	.	.
4C/	.	.	2r	.	.	2r	.	.	2r	.	.	.	.	8G/L 8f/	.	(>16bb\LL	.	8r	.	8r	.	8dd\	.	8ff\	.
.	.	.	.	.	.	.	.	.	.	.	.	.	.	.	.	16aa\)	.	.	.	.	.	.	.	.	.
.	.	.	.	.	.	.	.	.	.	.	.	.	.	8g/	.	16gg\'	.	8c/L	.	8cc\L	.	8r	.	8r	.
.	.	.	.	.	.	.	.	.	.	.	.	.	.	.	.	16ff#X\'JJ	.	.	.	.	.	.	.	.	.
4r	.	.	.	.	.	.	.	.	.	.	.	.	.	8G/ 8f/	.	(>16aa\LL	.	8c/	.	8cc\	.	4r	.	4r	.
.	.	.	.	.	.	.	.	.	.	.	.	.	.	.	.	16gg\	.	.	.	.	.	.	.	.	.
.	.	.	.	.	.	.	.	.	.	.	.	.	.	8g/J	.	16ffn\)	.	8c/J	.	8cc\J	.	.	.	.	.
.	.	.	.	.	.	.	.	.	.	.	.	.	.	.	.	.	.	.	.	.	.	.	.	.	.
!	!	!	!	!	!	!	!	!	!	!	!LO:DY:b	!	!	!	!	!	!	!	!	!	!	!	!	!	!
.	.	.	.	.	.	.	.	.	.	.	f	.	.	.	.	16dd\JJ	.	.	.	.	.	.	f	.	.
=38	=38	=38	=38	=38	=38	=38	=38	=38	=38	=38	=38	=38	=38	=38	=38	=38	=38	=38	=38	=38	=38	=38	=38	=38	=38
!LO:LB:g=original	!	!	!	!	!LO:DY:rj	!	!	!LO:DY:rj	!	!	!	!	!	!	!	!LO:PB:g=original	!	!	!	!	!	!	!	!	!
!	!	!LO:DY:rj	!	!	!LO:DY:b	!	!	!LO:DY:b	!	!	!	!	!	!	!LO:DY:rj	!	!LO:DY:rj	!	!	!	!	!	!	!	!
8C`L\	.	f	4C/	Quae	f	4cc\	Quae	f	4cc\	Quae	.	4C/	.	4G/ 4e/	f	8cc\'L	f	4c/	.	4cc\	.	4cc\	.	4cc\	.
8C/`	.	.	.	.	.	.	.	.	.	.	.	.	.	.	.	8cc\'	.	.	.	.	.	.	.	.	.
8C/`	.	.	8C/	Tu	.	8cc\	Tu	.	8cc\	Tu	.	4r	.	8c/L	.	8cc\'	.	4r	.	4r	.	8cc\L	.	8cc\L	.
8D\`J	.	.	8D/	cre-	.	8dd\	cre-	.	8dd\	cre-	.	.	.	8d/J	.	8dd\'J	.	.	.	.	.	8dd\J	.	8dd\J	.
4E-X\`	.	.	4E-X\	-a-	.	4ee-X\	-a-	.	4ee-X\	-a-	.	2r	.	4e-X/	.	4ee-X\'	.	2r	.	2r	.	4ee-X\	.	4ee-X\	.
4A-X\	9# 5- 3	.	4F#X\	-sti	.	4f#X/	-sti	.	4f#X/	-sti	.	.	.	4c/	.	4f#X/`^^	.	.	.	.	.	4cc\	.	4ff#X\	.
.	.	p	.	.	.	.	.	.	.	.	.	.	.	.	.	.	.	.	.	.	.	.	.	.	.
=39	=39	=39	=39	=39	=39	=39	=39	=39	=39	=39	=39	=39	=39	=39	=39	=39	=39	=39	=39	=39	=39	=39	=39	=39	=39
*	*	*	*	*	*	*	*	*	*	*	*	*	*	*Xtremolo	*	*Xtremolo	*	*	*	*	*	*	*	*	*
!	!	!	!	!	!	!	!	!	!	!	!	!	!	!	!LO:DY:rj	!	!LO:DY:rj	!	!	!	!	!	!	!	!
8G\L	3	.	8.G\	pec-	.	8.g/	pec-	.	8.g/	pec-	.	1r	.	8g/L	p	8d/L 8bn/	p	1r	.	1r	.	4b\	.	4gg\	.
8r	.	.	.	.	.	.	.	.	.	.	.	.	.	8r	.	8r	.	.	.	.	.	.	.	.	.
.	.	.	16G\	-to-	.	16g/	-to-	.	16g/	-to-	.	.	.	.	.	.	.	.	.	.	.	.	.	.	.
8G\J	.	.	4G\	-ra	.	4g/	-ra	.	4g/	-ra	.	.	.	8g/	.	8d/ 8b/	.	.	.	.	.	4r	.	4r	.
8r	.	.	.	.	.	.	.	.	.	.	.	.	.	8r	.	8r	.	.	.	.	.	.	.	.	.
8G\L	.	.	2r	.	.	2r	.	.	2r	.	.	.	.	8g/	.	8d/ 8b/	.	.	.	.	.	2r	.	16r	pp
.	.	.	.	.	.	.	.	.	.	.	.	.	.	.	.	.	.	.	.	.	.	.	.	16ff#X\LL	.
8r	.	.	.	.	.	.	.	.	.	.	.	.	.	8r	.	8r	.	.	.	.	.	.	.	(>16aa\	.
.	.	.	.	.	.	.	.	.	.	.	.	.	.	.	.	.	.	.	.	.	.	.	.	16gg\JJ	.
8G\J	.	.	.	.	.	.	.	.	.	.	.	.	.	8g/J	.	8d/J 8b/	.	.	.	.	.	.	.	16ff#\LL	.
.	.	.	.	.	.	.	.	.	.	.	.	.	.	.	.	.	.	.	.	.	.	.	.	16gg\	.
8r	.	.	.	.	.	.	.	.	.	.	.	.	.	8r	.	8r	.	.	.	.	.	.	.	16aa\)	.
.	.	.	.	.	.	.	.	.	.	.	.	.	.	.	.	.	.	.	.	.	.	.	.	16gg\JJ	.
.	.	.	.	.	.	.	.	.	.	.	.	.	.	.	.	.	.	.	.	.	.	.	.	.	f
=40	=40	=40	=40	=40	=40	=40	=40	=40	=40	=40	=40	=40	=40	=40	=40	=40	=40	=40	=40	=40	=40	=40	=40	=40	=40
!	!	!	!	!	!LO:DY:rj	!	!	!	!	!	!	!	!	!	!	!	!	!	!	!	!	!	!	!	!
!	!	!LO:DY:rj	!	!	!LO:DY:b	!	!	!	!	!	!	!	!	!	!LO:DY:rj	!	!LO:DY:rj	!	!	!	!	!	!	!	!
8C`L\	.	f	4c\	Quae	f	4cc\	Quae	.	4cc\	Quae	.	4C/	.	4c/	f	8cc\L	f	1r	.	1r	.	4ee-X\	.	4ccc\	.
8C/`	.	.	.	.	.	.	.	.	.	.	.	.	.	.	.	8cc\	.	.	.	.	.	.	.	.	.
8C/`	.	.	8c\	Tu	.	8cc\	Tu	.	8cc\	Tu	.	4r	.	8c/L	.	8cc\	.	.	.	.	.	4r	.	4r	.
8D\`J	.	.	8d\	cre-	.	8dd\	cre-	.	8dd\	cre-	.	.	.	8d/J	.	8dd\J	.	.	.	.	.	.	.	.	.
4E-X\`	.	.	4e-X\	-a-	.	4ee-X\	-a-	.	4ee-X\	-a-	.	2r	.	4e-X/	.	4ee-X\	.	.	.	.	.	4r	.	4r	.
4A-X\	9 5-	.	4F#X\	-sti	.	4f#X/	-sti	.	4f#X/	-sti	.	.	.	4c/	.	4f#X/`^^	.	.	.	.	.	4cc\	.	4ff#X\	.
.	.	p	.	.	.	.	.	.	.	.	.	.	.	.	.	.	.	.	.	.	.	.	.	.	.
=41	=41	=41	=41	=41	=41	=41	=41	=41	=41	=41	=41	=41	=41	=41	=41	=41	=41	=41	=41	=41	=41	=41	=41	=41	=41
!	!	!	!	!	!	!	!	!	!LO:PB:g=original	!	!	!	!	!LO:PB:g=original	!	!	!	!	!	!	!	!	!	!	!
!	!	!	!	!	!	!	!	!	!	!	!	!	!	!	!LO:DY:rj	!	!LO:DY:rj	!	!	!	!	!	!	!	!
8G\L	.	.	8.G\	pec-	.	8.g/	pec-	.	8.g/	pec-	.	1r	.	8g/L	p	8d/L 8b/	p	1r	.	1r	.	4b\	.	4gg\	.
8r	.	.	.	.	.	.	.	.	.	.	.	.	.	8r	.	8r	.	.	.	.	.	.	.	.	.
.	.	.	16G\	-to-	.	16g/	-to-	.	16g/	-to-	.	.	.	.	.	.	.	.	.	.	.	.	.	.	.
8G\J	.	.	4G\	-ra.	.	4g/	-ra	.	4g/	-ra.	.	.	.	8g/	.	8d/ 8b/	.	.	.	.	.	4r	.	4r	.
8r	.	.	.	.	.	.	.	.	.	.	.	.	.	8r	.	8r	.	.	.	.	.	.	.	.	.
!	!	!	!	!	!	!	!	!	!	!	!	!	!	!	!	!	!	!	!	!	!	!	!	!LO:PB:g=original	!
4G\	.	.	2r	.	.	2r	.	.	2r	.	.	.	.	8g/	.	8d/ 8b/	.	.	.	.	.	2r	.	16r	ff
.	.	.	.	.	.	.	.	.	.	.	.	.	.	.	.	.	.	.	.	.	.	.	.	(>16ff#X\LL	.
.	.	.	.	.	.	.	.	.	.	.	.	.	.	8r	.	8r	.	.	.	.	.	.	.	16aa\	.
.	.	.	.	.	.	.	.	.	.	.	.	.	.	.	.	.	.	.	.	.	.	.	.	16gg\JJ	.
4r	.	.	.	.	.	.	.	.	.	.	.	.	.	8g/J	.	8d/J 8b/	.	.	.	.	.	.	.	16ff#\LL	.
.	.	.	.	.	.	.	.	.	.	.	.	.	.	.	.	.	.	.	.	.	.	.	.	16gg\	.
.	.	.	.	.	.	.	.	.	.	.	.	.	.	8r	.	8r	.	.	.	.	.	.	.	16aa\	.
.	.	.	.	.	.	.	.	.	.	.	.	.	.	.	.	.	.	.	.	.	.	.	.	16bb\JJ)	.
=42	=42	=42	=42	=42	=42	=42	=42	=42	=42	=42	=42	=42	=42	=42	=42	=42	=42	=42	=42	=42	=42	=42	=42	=42	=42
!LO:PB:g=original	!	!	!	!	!	!LO:PB:g=original	!	!	!	!	!	!	!	!	!	!	!	!	!	!	!	!LO:PB:g=original	!	!	!
!LO:TX:a:i:t=pleno	!	!LO:DY:rj	!	!	!	!	!	!	!	!	!	!	!	!	!	!	!	!	!	!	!LO:DY:rj	!	!	!	!
*	*	*	*	*	*	*	*	*	*	*	*	*	*	*tremolo	*	*	*	*	*	*	*	*	*	*	*
4C/`	.	f	4C/	Ve-	.	4g/	Ve-	.	4ee\	Ve-	.	4C/	.	8G/L 8e/	.	4g\ 4ee\	.	4e/	f	4cc\	f	4ee\	.	4ccc\	.
.	.	.	.	.	.	.	.	.	.	.	.	.	.	8g/	.	.	.	.	.	.	.	.	.	.	.
4C/`	.	.	8E\	-ni	.	8g/	-ni	.	8cc\	-ni	.	4C/	.	8G/ 8e/	.	4e/ 4cc/	.	4e/	.	4cc\	.	4ee\	.	4ccc\	.
.	.	.	8C/	Cre-	.	8g/	Cre-	.	8cc\	Cre-	.	.	.	8g/J	.	.	.	.	.	.	.	.	.	.	.
!LO:TX:b:t=ped	!	!	!	!	!	!	!	!	!	!	!	!	!	!	!	!	!	!	!	!	!	!	!	!	!
2CC/	.	.	4G\	-a-	.	4b\	-a-	.	4dd\	-a-	.	2r	.	8f/L	.	(>8g/L	.	2r	.	2r	.	2r	.	4r	.
.	.	.	.	.	.	.	.	.	.	.	.	.	.	8d/J	.	8b\	.	.	.	.	.	.	.	.	.
.	.	.	4G\	-tor	.	4cc\	-tor	.	4ee\	-tor	.	.	.	8e/L	.	8cc\	.	.	.	.	.	.	.	4r	.
.	.	.	.	.	.	.	.	.	.	.	.	.	.	8cc\J	.	8ee\J)	.	.	.	.	.	.	.	.	.
=43	=43	=43	=43	=43	=43	=43	=43	=43	=43	=43	=43	=43	=43	=43	=43	=43	=43	=43	=43	=43	=43	=43	=43	=43	=43
!	!	!	!LO:PB:g=original	!	!	!	!	!	!	!	!	!	!	!	!	!LO:PB:g=original	!	!	!	!	!	!	!	!	!
4G\	3	.	8.G\	Spi-	.	8.b\	Spi-	.	8.dd\	Spi-	.	1r	.	4d/ 4b/	.	(>16dd\LL	.	8g/	.	8dd\	.	4dd\	.	4bb\	.
.	.	.	.	.	.	.	.	.	.	.	.	.	.	.	.	16gg\	.	.	.	.	.	.	.	.	.
.	.	.	.	.	.	.	.	.	.	.	.	.	.	.	.	16ff#X\	.	8r	.	8r	.	.	.	.	.
.	.	.	16G\	-ri-	.	16b\	-ri-	.	16dd\	-ri-	.	.	.	.	.	16ee\JJ	.	.	.	.	.	.	.	.	.
4G\	.	.	4G\	-tus	.	4b\	-tus,	.	4dd\	-tus	.	.	.	4d/ 4b/	.	16dd\LL	.	4r	.	4r	.	4b\	.	4gg\	.
.	.	.	.	.	.	.	.	.	.	.	.	.	.	.	.	16cc\	.	.	.	.	.	.	.	.	.
.	.	.	.	.	.	.	.	.	.	.	.	.	.	.	.	16b\	.	.	.	.	.	.	.	.	.
.	.	.	.	.	.	.	.	.	.	.	.	.	.	.	.	16a/JJ)	.	.	.	.	.	.	.	.	.
4G\	.	.	2r	.	.	2g/	men-	.	2r	.	.	.	.	4d/ 4b/	.	4g/	.	4g/	.	4dd\	.	4r	.	2r	.
.	.	.	.	.	.	.	.	.	.	.	.	.	.	.	.	.	.	.	.	.	.	.	.	.	.
4r	.	p	.	.	.	.	.	.	.	.	.	.	.	4g/	.	4r	.	4r	.	4r	.	4g/	.	.	.
=44	=44	=44	=44	=44	=44	=44	=44	=44	=44	=44	=44	=44	=44	=44	=44	=44	=44	=44	=44	=44	=44	=44	=44	=44	=44
4E\	4 3	.	1r	.	.	4.g/	-tes	.	4a\	men-	.	1r	.	4g/	.	4a\	.	1r	.	1r	.	4g/	.	4aa\	.
4r	.	.	.	.	.	.	.	.	8b\	-tes	.	.	.	4r	.	8b\L	.	.	.	.	.	4r	.	4r	.
.	.	.	.	.	.	8g/	tu-	.	8cc#X\	tu-	.	.	.	.	.	8cc#X\J	.	.	.	.	.	.	.	.	.
4D\	n 2	.	.	.	.	8f/L	-o-	.	8dd\L	-o-	.	.	.	8f/L	.	8dd\L	.	.	.	.	.	2r	.	2r	.
.	.	.	.	.	.	8e/J	.	.	8ee\J	.	.	.	.	8e/J	.	8ee\J	.	.	.	.	.	.	.	.	.
4r	.	.	.	.	.	4d/	-rum	.	4ff\	-rum	.	.	.	4d/	.	4ff\	.	.	.	.	.	.	.	.	.
=45	=45	=45	=45	=45	=45	=45	=45	=45	=45	=45	=45	=45	=45	=45	=45	=45	=45	=45	=45	=45	=45	=45	=45	=45	=45
4D\	4 3	.	1r	.	.	(<2f/	vi-	.	8.g/	vi-	.	1r	.	4f/	.	8.g/L	.	1r	.	1r	.	4f/	.	4gg\	.
.	.	.	.	.	.	.	.	.	16a/	-si-	.	.	.	.	.	16a/Jk	.	.	.	.	.	.	.	.	.
4r	.	.	.	.	.	.	.	.	4b\	-ta	.	.	.	4r	.	4b\	.	.	.	.	.	4r	.	4r	.
4C/	3	.	.	.	.	8e/)	.	.	8cc\	{vi-	.	.	.	8e/L	.	8cc\L	.	.	.	.	.	2r	.	2r	.
.	.	.	.	.	.	8d/	-si-	.	8dd\	-si-	.	.	.	8d/J	.	8dd\J	.	.	.	.	.	.	.	.	.
.	.	.	.	.	.	.	.	.	.	.	.	.	.	.	.	.	.	.	.	.	.	.	.	.	.
4r	.	f	.	.	.	4c/	-ta	.	4ee\	-ta}	.	.	.	4c/	.	4ee\	.	.	.	.	.	.	.	.	.
=46	=46	=46	=46	=46	=46	=46	=46	=46	=46	=46	=46	=46	=46	=46	=46	=46	=46	=46	=46	=46	=46	=46	=46	=46	=46
*tremolo	*	*	*	*	*	*	*	*	*	*	*	*tremolo	*	*	*	*tremolo	*	*	*	*	*	*	*	*	*
!	!	!	!	!	!	!	!	!	!	!	!	!	!	!	!LO:DY:rj	!	!LO:DY:rj	!	!	!	!	!	!	!	!
8G\L	5	.	4G\	vi-	.	4b\	vi-	.	4dd\	visi-	.	32GG/LLL	.	16g\'LL 16b\	f	16dd\'LL 16bb\	f	8g/L	.	8dd\L	.	4b\	.	8dd\L	.
.	.	.	.	.	.	.	.	.	.	.	.	32GG/	.	.	.	.	.	.	.	.	.	.	.	.	.
.	.	.	.	.	.	.	.	.	.	.	.	32GG/	.	16g/' 16b/	.	16dd\' 16bb\	.	.	.	.	.	.	.	.	.
.	6	.	.	.	.	.	.	.	.	.	.	32GG/	.	.	.	.	.	.	.	.	.	.	.	.	.
8G\	.	.	.	.	.	.	.	.	.	.	.	32GG/	.	16g/' 16b/	.	16dd\' 16bb\	.	8g/J	.	8dd\	.	.	.	8gg\	.
.	.	.	.	.	.	.	.	.	.	.	.	32GG/	.	.	.	.	.	.	.	.	.	.	.	.	.
.	.	.	.	.	.	.	.	.	.	.	.	32GG/	.	16g/'JJ 16b/	.	16dd\'JJ 16bb\	.	.	.	.	.	.	.	.	.
.	.	.	.	.	.	.	.	.	.	.	.	32GG/	.	.	.	.	.	.	.	.	.	.	.	.	.
8G\	.	.	4G\	-si-	.	4cc\	-si-	.	4ee\	-ta,	.	32GG/	.	16g\'LL 16cc\	.	16ee\'LL 16ccc\	.	8cc\L	.	8ee\	.	4cc\	.	8ee\	.
.	.	.	.	.	.	.	.	.	.	.	.	32GG/	.	.	.	.	.	.	.	.	.	.	.	.	.
.	.	.	.	.	.	.	.	.	.	.	.	32GG/	.	16g/' 16cc/	.	16ee\' 16ccc\	.	.	.	.	.	.	.	.	.
.	.	.	.	.	.	.	.	.	.	.	.	32GG/	.	.	.	.	.	.	.	.	.	.	.	.	.
8G\J	.	.	.	.	.	.	.	.	.	.	.	32GG/	.	16g/' 16cc/	.	16ee\' 16ccc\	.	8cc\J	.	8ee\J	.	.	.	8gg\J	.
.	.	.	.	.	.	.	.	.	.	.	.	32GG/	.	.	.	.	.	.	.	.	.	.	.	.	.
.	.	.	.	.	.	.	.	.	.	.	.	32GG/	.	16g/'JJ 16cc/	.	16ee\'JJ 16ccc\	.	.	.	.	.	.	.	.	.
.	.	.	.	.	.	.	.	.	.	.	.	32GG/JJJ	.	.	.	.	.	.	.	.	.	.	.	.	.
8G\	5	.	8G\	-ta,	.	8b\	-ta	.	8dd\	.	.	4GG/	.	8g\ 8b\	.	8dd\'L 8bb\	.	8g/	.	8dd\	.	8b\	.	8dd\	.
8G\`L	.	.	8G\	Im-	.	8g/	Im-	.	8g/	Im-	.	.	.	8r	.	8g/'	.	8r	.	8r	.	8r	.	8r	.
8E\`	.	.	8E\	-ple	.	8g/	-ple	.	8cc\	-ple	.	4r	.	4r	.	8cc\'	.	4r	.	4r	.	4r	.	4r	.
8C/`J	.	.	8C/	su-	.	8g/	su-	.	8ee\	su-	.	.	.	.	.	8ee\'J	.	.	.	.	.	.	.	.	.
.	.	.	.	.	.	.	.	.	.	.	.	.	.	.	.	.	p	.	.	.	.	.	.	.	p
=47	=47	=47	=47	=47	=47	=47	=47	=47	=47	=47	=47	=47	=47	=47	=47	=47	=47	=47	=47	=47	=47	=47	=47	=47	=47
!LO:PB:g=original!	!	!LO:DY:rj	!	!	!	!	!	!	!LO:PB:g=original	!	!	!	!	!LO:PB:g=original	!LO:DY:rj	!	!	!LO:PB:g=original	!	!LO:PB:g=original	!	!	!	!	!
8G\	.	p	4G\	-per-	.	4f/	-per-	.	4gg\	-per-	.	1r	.	(<8d/L	p	(<8f/L	.	8g/	p	8dd\	p	1r	.	2gg\T	.
8r	.	.	.	.	.	.	.	.	.	.	.	.	.	8f/	.	8g/	.	8r	.	8r	.	.	.	.	.
4r	.	.	4G\	-na	.	4f/	-na	.	4b\	-na	.	.	.	8d/	.	8f/	.	4r	.	4r	.	.	.	.	.
.	.	.	.	.	.	.	.	.	.	.	.	.	.	8f/J)	.	8g/J)	.	.	.	.	.	.	.	.	.
8G\	.	.	4.G\	gra-	.	4.f/	gra-	.	4.b\	gra-	.	.	.	(<8d/L	.	(<8f/L	.	8g/	.	8dd\	.	.	.	8aa\L	.
8r	.	.	.	.	.	.	.	.	.	.	.	.	.	8f/	.	8g/	.	8r	.	8r	.	.	.	8gg\	.
4r	.	.	.	.	.	.	.	.	.	.	.	.	.	8d/	.	8f/	.	4r	.	4r	.	.	.	8ffn\	.
.	.	.	8G\	-ti-	.	8f/	-ti-	.	8b\	-ti-	.	.	.	8f/J)	.	8g/J)	.	.	.	.	.	.	.	8dd\J	.
=48	=48	=48	=48	=48	=48	=48	=48	=48	=48	=48	=48	=48	=48	=48	=48	=48	=48	=48	=48	=48	=48	=48	=48	=48	=48
!	!	!	!	!	!	!	!	!	!	!	!	!	!	!	!	!LO:PB:g=original	!	!	!	!	!	!	!	!	!
*Xtremolo	*	*	*	*	*	*	*	*	*	*	*	*	*	*Xtremolo	*	*	*	*	*	*	*	*	*	*	*
8C/L	.	.	4C/	-a	.	4e/	-a,	.	4cc\	-a	.	1r	.	8c/L	.	(<8e/L	.	4e/	.	4cc\	.	1r	.	4cc\	.
8r	.	.	.	.	.	.	.	.	.	.	.	.	.	8r	.	8g/	.	.	.	.	.	.	.	.	.
8C/J	.	.	4r	.	.	4r	.	.	4r	.	.	.	.	8c/J	.	8e/	.	4e/	.	4cc\	.	.	.	4r	.
8r	.	.	.	.	.	.	.	.	.	.	.	.	.	8r	.	8g/J)	.	.	.	.	.	.	.	.	.
8C/	.	.	8r	.	.	8r	.	.	8r	.	.	.	.	8c/	.	8e/L	.	4r	.	2r	.	.	.	2r	.
.	.	.	.	.	.	.	.	.	.	.	.	.	.	.	.	.	f	.	.	.	.	.	.	.	.
8G\`L	.	.	8G\	Im-	.	8g/	im-	.	8g/	Im-	.	.	.	8g/L	f	8g/J	.	.	.	.	.	.	.	.	.
8E\`	.	.	8E\	-ple	.	8g/	-ple	.	8cc\	-ple	.	.	.	8e/	.	8cc\L	.	4r	.	.	.	.	.	.	.
8C/`J	.	.	8C/	su-	.	8g/	su-	.	8ee\	super-	.	.	.	8c/J	.	8ee\J	.	.	.	.	.	.	.	.	.
=49	=49	=49	=49	=49	=49	=49	=49	=49	=49	=49	=49	=49	=49	=49	=49	=49	=49	=49	=49	=49	=49	=49	=49	=49	=49
!	!	!	!	!	!	!LO:PB:g=original	!	!	!	!	!	!	!	!	!LO:DY:rj	!	!LO:DY:rj	!	!	!	!	!	!	!	!
*	*	*	*	*	*	*	*	*	*	*	*	*	*	*tremolo	*	*	*	*	*	*	*	*	*	*	*
8G\	.	.	4D\	-per-	.	4f/	-per-	.	4gg\	.	.	1r	.	(<8d/L	p	(<8f/L	p	8g/	.	8dd\	.	1r	.	2gg\T	.
8r	.	.	.	.	.	.	.	.	.	.	.	.	.	8f/	.	8g/	.	8r	.	8r	.	.	.	.	.
4r	.	.	4D\	-na	.	4f/	-na	.	4b\	-na	.	.	.	8d/	.	8f/	.	4r	.	4r	.	.	.	.	.
.	.	.	.	.	.	.	.	.	.	.	.	.	.	8f/J)	.	8g/J)	.	.	.	.	.	.	.	.	.
8G\	.	.	4.G\	gra-	.	4.f/	gra-	.	4.b\	gra-	.	.	.	(<8d/L	.	(<8f/L	.	8g/	.	8dd\	.	.	.	8aa\L	.
8r	.	.	.	.	.	.	.	.	.	.	.	.	.	8f/	.	8g/	.	8r	.	8r	.	.	.	8gg\	.
4r	.	.	.	.	.	.	.	.	.	.	.	.	.	8d/	.	8f/	.	4r	.	4r	.	.	.	8ff\	.
.	.	.	8G\	-ti-	.	8f/	-ti-	.	8b\	-ti-	.	.	.	8f/J)	.	8g/J)	.	.	.	.	.	.	.	8dd\J	.
=50	=50	=50	=50	=50	=50	=50	=50	=50	=50	=50	=50	=50	=50	=50	=50	=50	=50	=50	=50	=50	=50	=50	=50	=50	=50
4C/	.	.	4C/	-a,	.	4g/	-a,	.	4cc\	-a	.	1r	.	8G/L 8e/	.	8cc\L	.	8e/L	.	8cc\L	.	4e/	.	4cc\	.
.	.	.	.	.	.	.	.	.	.	.	.	.	.	8g/J	.	16aa\L	.	8r	.	8r	.	.	.	.	.
!	!	!	!	!	!	!	!	!	!	!	!	!	!	!	!	!LO:SIC:v= niejednoznaczy początek łuku	!	!	!	!	!	!	!	!	!
.	.	.	.	.	.	.	.	.	.	.	.	.	.	.	.	(>16gg\JJ	.	.	.	.	.	.	.	.	.
4r	.	.	4r	.	.	4r	.	.	4r	.	.	.	.	8G/L 8f/	.	16ff\LL	.	8e/J	.	8cc\	.	4r	.	4r	.
.	.	.	.	.	.	.	.	.	.	.	.	.	.	.	.	16ee\	.	.	.	.	.	.	.	.	.
.	.	.	.	.	.	.	.	.	.	.	.	.	.	8g/J	.	16ff\)	.	8r	.	8r	.	.	.	.	.
.	.	.	.	.	.	.	.	.	.	.	.	.	.	.	.	16dd\JJ	.	.	.	.	.	.	.	.	.
4C/	.	.	4r	.	.	4r	.	.	4r	.	.	.	.	4G/ 4e/	.	4cc\	.	8e/	.	8cc\J	.	2r	.	2r	.
.	.	.	.	.	.	.	.	.	.	.	.	.	.	.	.	.	.	8r	.	8r	.	.	.	.	.
4C/	.	.	4C/	quae	.	4e/	quae	.	4g/	quae	.	.	.	4r	.	4g/	.	4r	.	4r	.	.	.	.	.
=51	=51	=51	=51	=51	=51	=51	=51	=51	=51	=51	=51	=51	=51	=51	=51	=51	=51	=51	=51	=51	=51	=51	=51	=51	=51
!	!	!	!LO:PB:g=original	!	!	!	!	!	!	!	!	!	!	!	!	!	!	!	!	!	!	!	!	!LO:PB:g=original	!
*tremolo	*	*	*	*	*	*	*	*	*	*	*	*	*	*	*	*	*	*	*	*	*	*	*	*	*
8F\L	3	.	2F\	Tu	.	2f/	Tu	.	2a/	Tu	.	1r	.	8f/'L	.	8a/'L	.	1r	.	1r	.	2r	.	2r	.
8F\	.	.	.	.	.	.	.	.	.	.	.	.	.	8f/'	.	8a/'	.	.	.	.	.	.	.	.	.
8F\	.	.	.	.	.	.	.	.	.	.	.	.	.	8f/'	.	8a/'	.	.	.	.	.	.	.	.	.
8F\J	.	.	.	.	.	.	.	.	.	.	.	.	.	8f/'J	.	8a/'J	.	.	.	.	.	.	.	.	.
8E\L	6 4 3	.	2G\	cre-	.	2a/	cre-	.	2cc#X\	cre-	.	.	.	8g/'L 8a/	.	8e\'L 8cc#X\	.	.	.	.	.	4a/	.	2cc#X\	.
8E\	.	.	.	.	.	.	.	.	.	.	.	.	.	8g/' 8a/	.	8e/' 8cc#/	.	.	.	.	.	.	.	.	.
8E\	.	.	.	.	.	.	.	.	.	.	.	.	.	8g/' 8a/	.	8e/' 8cc#/	.	.	.	.	.	4g/	.	.	.
8E\J	.	.	.	.	.	.	.	.	.	.	.	.	.	8g/'J 8a/	.	8e/'J 8cc#/	.	.	.	.	.	.	.	.	.
=52	=52	=52	=52	=52	=52	=52	=52	=52	=52	=52	=52	=52	=52	=52	=52	=52	=52	=52	=52	=52	=52	=52	=52	=52	=52
!LO:PB:g=original	!	!	!	!	!	!	!	!	!	!	!	!	!	!	!	!	!	!	!	!	!	!	!	!	!
8F\L	6	.	(>4F\	-a-	.	2.a\	-a-	.	(>4dd\	-a-	.	1r	.	8r	.	8r	.	1r	.	1r	.	8f/	.	8dd\L	.
8r	.	.	.	.	.	.	.	.	.	.	.	.	.	8f/L 8a/	.	8dd\L	<	.	.	.	.	8r	.	8r	.
8E\J	4 3	.	4E\	.	.	.	.	.	4ee\)	.	.	.	.	8r	.	8r	.	.	.	.	.	8cc#X\	.	8ee\J	.
8r	.	.	.	.	.	.	.	.	.	.	.	.	.	8d/J 8a/	.	8ee\	.	.	.	.	.	8r	.	8r	.
8D\	n 2	.	4D\)	.	.	.	.	.	(>4ff\	-sti	.	.	.	8r	.	8r	.	.	.	.	.	8dd\	.	8ff\L	.
8r	.	.	.	.	.	.	.	.	.	.	.	.	.	8f/ 8a/	.	8ff\J	.	.	.	.	.	8r	.	8r	.
4A-X\	6 5-	f	4E-X\	-sti	.	4cc\	-sti	.	4ff#X\)	.	.	.	.	4a-X/^^	.	4cc\^^ 4ff#X\	.	.	.	.	.	8cc#\	.	8ff#X\J	.
.	.	.	.	.	.	.	.	.	.	.	.	.	.	.	.	.	.	.	.	.	.	8r	.	8r	.
=53	=53	=53	=53	=53	=53	=53	=53	=53	=53	=53	=53	=53	=53	=53	=53	=53	=53	=53	=53	=53	=53	=53	=53	=53	=53
!	!	!	!	!	!	!	!	!	!	!	!	!	!	!	!LO:DY:rj	!	!	!	!	!	!	!LO:PB:g=original	!	!	!
8G\L	4	.	(>2En\	pec-	.	(>2cc\	pec-	.	(>2gg\	pec-	.	1r	.	8e/'L	f	8gg\'L	.	1r	.	1r	.	4ee\	.	4gg\	.
8G\	.	.	.	.	.	.	.	.	.	.	.	.	.	8e/'	.	8gg\'	.	.	.	.	.	.	.	.	.
8G\	.	.	.	.	.	.	.	.	.	.	.	.	.	8e/'	.	8gg\'	.	.	.	.	.	4r	.	4r	.
8G\J	.	.	.	.	.	.	.	.	.	.	.	.	.	8e/'J	.	8gg\'J	.	.	.	.	.	.	.	.	.
8GG/L	3	.	4.F\)	.	.	4.g/)	.	.	4.b\)	.	.	.	.	8f/'L	.	8d/L 8b/	.	.	.	.	.	4.dd\	.	4.bb\	.
8GG/	.	.	.	.	.	.	.	.	.	.	.	.	.	8f/'	.	8d/ 8b/	.	.	.	.	.	.	.	.	.
8GG/	.	.	.	.	.	.	.	.	.	.	.	.	.	8f/'	.	8d/ 8b/	.	.	.	.	.	.	.	.	.
8GG/J	.	.	8F\	-to-	.	8g/	-to-	.	8b\	-to-	.	.	.	8f/'J	.	8d/J 8b/	[	.	.	.	.	8dd\	.	8bb\	.
=54	=54	=54	=54	=54	=54	=54	=54	=54	=54	=54	=54	=54	=54	=54	=54	=54	=54	=54	=54	=54	=54	=54	=54	=54	=54
!	!	!	!	!	!	!	!	!	!	!	!	!	!	!LO:PB:g=original	!	!LO:PB:g=original	!	!	!	!	!	!	!	!	!
4C/	.	.	4E\	-ra,	.	4g/	-ra	.	4cc\	-ra	.	4C/	p	8G/L 8e/	.	16cc\LL	.	1r	.	1r	.	4ee\	.	4ccc\	.
.	.	.	.	.	.	.	.	.	.	.	.	.	.	.	.	16ccc\	.	.	.	.	.	.	.	.	.
.	.	.	.	.	.	.	.	.	.	.	.	.	.	8g/	.	16bb\	.	.	.	.	.	.	.	.	.
.	.	.	.	.	.	.	.	.	.	.	.	.	.	.	.	16aa\JJ	.	.	.	.	.	.	.	.	.
4C/	.	.	4r	.	.	4r	.	.	4r	.	.	4C/	.	8G/ 8e/	.	16gg\LL	.	.	.	.	.	4ee\	.	4ccc\	.
.	.	.	.	.	.	.	.	.	.	.	.	.	.	.	.	16ff\	.	.	.	.	.	.	.	.	.
.	.	.	.	.	.	.	.	.	.	.	.	.	.	8g/J	.	16ee\	.	.	.	.	.	.	.	.	.
.	.	.	.	.	.	.	.	.	.	.	.	.	.	.	.	16dd\JJ	.	.	.	.	.	.	.	.	.
!	!	!	!	!	!	!	!	!	!LO:PB:g=original	!	!	!	!	!	!	!	!	!	!	!	!	!	!	!	!
4C/	.	.	4r	.	.	4r	.	.	4r	.	.	4C/	.	4G/ 4e/	.	4cc\	.	.	.	.	.	4ee\	.	4ccc\	.
4r	.	.	4C/	Ve-	.	4g/	Ve-	.	4ee\	Ve-	.	4r	.	4r	.	4ee\	.	.	.	.	.	4r	.	4r	.
.	.	.	.	.	.	.	.	.	.	.	.	.	.	.	pp	.	pp	.	.	.	.	.	.	.	.
=55	=55	=55	=55	=55	=55	=55	=55	=55	=55	=55	=55	=55	=55	=55	=55	=55	=55	=55	=55	=55	=55	=55	=55	=55	=55
!LO:TX:b:t=ped	!	!	!	!	!	!	!	!	!	!	!	!	!	!	!	!	!	!	!	!	!	!	!	!	!
*	*	*	*	*	*	*	*	*	*	*	*	*	*	*Xtremolo	*	*Xtremolo	*	*	*	*	*	*	*	*	*
4CC/	.	.	4E\	-ni	.	4g/	-ni	.	4cc\	-ni	.	1r	.	8c/L	.	8G/L 8e/	.	1r	.	1r	.	4r	.	4r	pp
.	.	.	.	.	.	.	.	.	.	.	.	.	.	8r	.	8r	.	.	.	.	.	.	.	.	.
4r	.	.	4r	.	.	4r	.	.	4r	.	.	.	.	8c/	.	8G/ 8e/	.	.	.	.	.	(<4g/	pp	(>4ee\	.
.	.	.	.	.	.	.	.	.	.	.	.	.	.	8r	.	8r	.	.	.	.	.	.	.	.	.
4CC/	.	.	4r	.	.	4r	.	.	4r	.	.	.	.	8c/	.	8G/ 8e/	.	.	.	.	.	4e/)	.	4cc\)	.
.	.	.	.	.	.	.	.	.	.	.	.	.	.	8r	.	8r	.	.	.	.	.	.	.	.	.
4r	.	.	4C/	Ve-	.	4g/	Ve-	.	4ee\	Ve-	.	.	.	8c/J	.	8G/J 8e/	.	.	.	.	.	4r	.	4r	.
.	.	.	.	.	.	.	.	.	.	.	.	.	.	8r	.	8r	.	.	.	.	.	.	.	.	.
=56	=56	=56	=56	=56	=56	=56	=56	=56	=56	=56	=56	=56	=56	=56	=56	=56	=56	=56	=56	=56	=56	=56	=56	=56	=56
4CC/	.	.	4E\	-ni	.	4g/	-ni	.	4cc\	-ni	.	1r	.	8c/L	.	8G/L 8e/	.	1r	.	1r	.	4r	.	4r	.
.	.	.	.	.	.	.	.	.	.	.	.	.	.	8r	.	8r	.	.	.	.	.	.	.	.	.
4r	.	.	4r	.	.	4r	.	.	4r	.	.	.	.	8c/	.	8G/ 8e/	.	.	.	.	.	4g/	.	4ee\	.
.	.	.	.	.	.	.	.	.	.	.	.	.	.	8r	.	8r	.	.	.	.	.	.	.	.	.
4CC/	.	.	4r	.	.	4r	.	.	4r	.	.	.	.	8c/	.	8G/ 8e/	.	.	.	.	.	4e/	.	4cc\	.
.	.	.	.	.	.	.	.	.	.	.	.	.	.	8r	.	8r	.	.	.	.	.	.	.	.	.
4r	.	.	4C/	Cre-	.	4g/	Cre-	.	4ee\	Cre-	.	.	.	8c/J	.	8G/J 8e/	.	.	.	.	.	4r	.	4r	.
.	.	.	.	.	.	.	.	.	.	.	.	.	.	8r	.	8r	.	.	.	.	.	.	.	.	.
=57	=57	=57	=57	=57	=57	=57	=57	=57	=57	=57	=57	=57	=57	=57	=57	=57	=57	=57	=57	=57	=57	=57	=57	=57	=57
!LO:PB:g=original	!	!	!	!	!	!	!	!	!	!	!	!	!	!	!	!	!	!LO:TX:a:t=Clarini	!	!	!	!	!	!	!
4CC/	.	.	2C/	-a-	.	2g/	-a-	.	2ee\	-a-	.	32C/LLL	<	4c/	.	4G/' 4e/	f	4r	f	4r	f	4r	.	4r	.
.	.	.	.	.	.	.	.	.	.	.	.	32C/	.	.	.	.	.	.	.	.	.	.	.	.	.
.	.	.	.	.	.	.	.	.	.	.	.	32C/	.	.	.	.	.	.	.	.	.	.	.	.	.
.	.	.	.	.	.	.	.	.	.	.	.	32C/	.	.	.	.	.	.	.	.	.	.	.	.	.
.	.	.	.	.	.	.	.	.	.	.	.	32C/	.	.	.	.	.	.	.	.	.	.	.	.	.
.	.	.	.	.	.	.	.	.	.	.	.	32C/	.	.	.	.	.	.	.	.	.	.	.	.	.
.	.	.	.	.	.	.	.	.	.	.	.	32C/	.	.	.	.	.	.	.	.	.	.	.	.	.
.	.	.	.	.	.	.	.	.	.	.	.	32C/	.	.	.	.	.	.	.	.	.	.	.	.	.
*Xtremolo	*	*	*	*	*	*	*	*	*	*	*	*	*	*	*	*	*	*	*	*	*	*	*	*	*
!	!	!	!	!	!	!	!	!	!	!	!	!	!	!	!LO:HP:a	!	!	!	!	!LO:TX:a:t=Clarini	!	!	!	!	!
8C/L	8 5 3	ff	.	.	.	.	.	.	.	.	.	32C/	.	16e/LL	<	16cc\'LL	<	8e/L	.	8cc\L	.	8ee\L	.	8ccc\L	.
.	.	.	.	.	.	.	.	.	.	.	.	32C/	.	.	.	.	.	.	.	.	.	.	.	.	.
.	.	.	.	.	.	.	.	.	.	.	.	32C/	.	16e/	.	16cc\'	.	.	.	.	.	.	.	.	.
.	.	.	.	.	.	.	.	.	.	.	.	32C/	.	.	.	.	.	.	.	.	.	.	.	.	.
8C/J	.	.	.	.	.	.	.	.	.	.	.	32C/	.	16e/	.	16cc\'	.	8e/J	.	8cc\J	.	8ee\J	.	8ccc\J	.
.	.	.	.	.	.	.	.	.	.	.	.	32C/	.	.	.	.	.	.	.	.	.	.	.	.	.
.	.	.	.	.	.	.	.	.	.	.	.	32C/	.	16e/JJ	.	16cc\'JJ	.	.	.	.	.	.	.	.	.
.	.	.	.	.	.	.	.	.	.	.	.	32C/	.	.	[	.	.	.	.	.	.	.	.	.	.
*tremolo	*	*	*	*	*	*	*	*	*	*	*	*	*	*tremolo	*	*	*	*tremolo	*	*tremolo	*	*tremolo	*	*tremolo	*
.	.	.	.	.	.	.	.	.	.	.	.	.	.	.	f	.	.	.	.	.	.	.	.	.	.
8C'L\	.	.	4C/	-tor.	.	4g/	-tor.	.	4cc\	-tor.	.	32C/	.	16e\LL 16cc\	.	16ee\'LL	.	16e/LL	.	16cc\LL	.	8ee\'L	.	8ccc\'L	.
.	.	.	.	.	.	.	.	.	.	.	.	32C/	.	.	.	.	.	.	.	.	.	.	.	.	.
.	.	.	.	.	.	.	.	.	.	.	.	32C/	.	16e/ 16cc/	.	16ee\'	.	16e/	.	16cc\	.	.	.	.	.
.	.	.	.	.	.	.	.	.	.	.	.	32C/	.	.	.	.	.	.	.	.	.	.	.	.	.
8C/'	.	.	.	.	.	.	.	.	.	.	.	32C/	.	16e/ 16cc/	.	16ee\'	.	16e/	.	16cc\	.	8ee\'	.	8ccc\'	.
.	.	.	.	.	.	.	.	.	.	.	.	32C/	.	.	.	.	.	.	.	.	.	.	.	.	.
.	.	.	.	.	.	.	.	.	.	.	.	32C/	.	16e/ 16cc/	.	16ee\'JJ	.	16e/	.	16cc\	.	.	.	.	.
.	.	.	.	.	.	.	.	.	.	.	.	32C/	.	.	.	.	.	.	.	.	.	.	.	.	.
8C/'	.	.	4r	.	.	4r	.	.	4r	.	.	32C/	.	16e/ 16cc/	.	16gg\'LL	.	16e/	.	16cc\	.	8ee\'	.	8ccc\'	.
.	.	.	.	.	.	.	.	.	.	.	.	32C/	.	.	.	.	.	.	.	.	.	.	.	.	.
.	.	.	.	.	.	.	.	.	.	.	.	32C/	.	16e/ 16cc/	.	16gg\'	.	16e/	.	16cc\	.	.	.	.	.
.	.	.	.	.	.	.	.	.	.	.	.	32C/	.	.	.	.	.	.	.	.	.	.	.	.	.
8C/'J	.	.	.	.	.	.	.	.	.	.	.	32C/	.	16e/ 16cc/	.	16gg\'	.	16e/	.	16cc\	.	8ee\'J	.	8ccc\'J	.
.	.	.	.	.	.	.	.	.	.	.	.	32C/	.	.	.	.	.	.	.	.	.	.	.	.	.
.	.	.	.	.	.	.	.	.	.	.	.	32C/	.	16e/JJ 16cc/	.	16gg\'JJ	[[	16e/JJ	.	16cc\JJ	.	.	.	.	.
.	.	.	.	.	.	.	.	.	.	.	.	32C/JJJ	[	.	.	.	.	.	.	.	.	.	.	.	.
=58	=58	=58	=58	=58	=58	=58	=58	=58	=58	=58	=58	=58	=58	=58	=58	=58	=58	=58	=58	=58	=58	=58	=58	=58	=58
8C/	.	.	1r	.	.	1r	.	.	1r	.	.	8C/	f	8e\ 8cc\	.	8ee\ 8ccc\	[	8e/	.	8cc\	.	8ee\	.	8ccc\	.
8r	.	.	.	.	.	.	.	.	.	.	.	8r	.	8r	.	8r	.	8r	.	8r	.	8r	.	8r	.
4r	.	.	.	.	.	.	.	.	.	.	.	4r	.	4r	.	4r	.	4r	.	4r	.	4r	.	4r	.
2r	.	.	.	.	.	.	.	.	.	.	.	2r	.	2r	.	2r	.	2r	.	2r	.	2r	.	2r	.
==	==	==	==	==	==	==	==	==	==	==	==	==	==	==	==	==	==	==	==	==	==	==	==	==	==
*-	*-	*-	*-	*-	*-	*-	*-	*-	*-	*-	*-	*-	*-	*-	*-	*-	*-	*-	*-	*-	*-	*-	*-	*-	*-
!!!system-decoration: s1,s2,s3,s4,s5,s6,s7,s8,s9,s10,s11
!!!RDF**kern: > = above
!!!RDF**kern: < = below
!!!AIN: 1 bass 2 empty 2 oboe 1 organ 1 timpa 2 violn 2 vox
!!!ENC: Andrzej Borzym
!!!END: 2020-02-03
!!!ENC: Leszek Kubiak
!!!END: 2020-03-06
